!!!!SEGMENT: pl-cz--iii-699--002_volckmer-augustin--litaniae-lauretanae-g-mater-christi.krn
!!!cenid: 17xx:1133
!!!COM: Volckmer, Augustin
!!!COM-rismid: pe30020656
!!!CDT: 1755-~1820
!!!CNT:
!!!OPR: Litaniae Lauretanae G
!!!OTL: Mater Christi
!!!OMV: 002
!!!PDT:
!!!AGN: Sacred; Mass
!!!SMS-siglum: PL-CZ
!!!SMS-shelfmark: III-699
!!!SMS-shelfwork: 001-002 M
!!!SMS-variant: Viola. Solo: PL-CZ III-699: 013-014
!!!SMS-altvar: Alto. Viola. Obligat: PL-CZ III-699: 012-013
!!!NIFC-rismid: 300001386
!!!URL-scan: http://repozytorium.nifc.pl/skany/pl-cz-nut--iii-699
!!!ONB-nifc: UWAGA: części Litanii: Kyrie eleison, Mater Christi, Salus infirmorum, Regina angelorum, Agnus Dei
!!!key: D
**kern	**fba	**dynam	**kern	**dynam	**kern	**dynam	**kern	**dynam	**kern	**kern	**kern	**text	**kern	**kern	**kern	**kern	**kern
*	*	*	*group4	*	*group4	*	*group4	*	*group3	*group3	*group3	*	*group3	*group2	*group2	*group1	*group1
*part12	*	*part12	*part11	*part11	*part10	*part10	*part9	*part9	*part8	*part7	*part6	*part6	*part5	*part4	*part3	*part2	*part1
*staff12	*	*	*staff11	*	*staff10	*	*staff9	*	*staff8	*staff7	*staff6	*staff6	*staff5	*staff4	*staff3	*staff2	*staff1
*I"Organo.	*	*	*I"Viola. Solo	*	*I"Violino Secundo	*	*I"Violino Primo	*	*I"Baſso.	*I"Tenore.	*I"Alto	*	*I"Canto	*I"Cornu Secundo ex G	*I"Cornu. Primo. ex G	*I"Flauto. Secundo.	*I"Flauto. Primo.
*I'org	*	*	*I'vla solo	*	*I'vl 2	*	*I'vl 1	*	*I'B	*I'T	*I'A	*	*I'S	*I'cor 2	*I'cor 1	*I'fl 2	*I'fl 1
*Iorgan	*	*	*Iviola	*	*Ivioln	*	*Ivioln	*	*Ibass	*Itenor	*Ialto	*	*Isoprn	*Icor	*Icor	*Iflt	*Iflt
*ICklav	*	*	*ICstr	*	*ICstr	*	*ICstr	*	*ICvox	*ICvox	*ICvox	*	*ICvox	*ICbras	*ICbras	*ICww	*ICww
*IGcont	*	*	*	*	*	*	*	*	*	*	*	*	*	*	*	*	*
*clefF4	*	*	*clefC3	*	*clefG2	*	*clefG2	*	*clefF4	*clefC4	*clefC3	*	*clefC1	*clefG2	*clefG2	*clefG2	*clefG2
*	*	*	*	*	*	*	*	*	*	*	*	*	*	*ITrd3c5	*ITrd3c5	*	*
*k[f#c#]	*	*	*k[c#f#]	*	*k[f#c#]	*	*k[f#c#]	*	*k[f#c#]	*k[f#c#]	*k[f#c#]	*	*k[f#c#]	*k[f#c#]	*k[f#c#]	*k[f#c#]	*k[f#c#]
*D:	*	*	*D:	*	*D:	*	*D:	*	*D:	*D:	*D:	*	*D:	*D:	*D:	*D:	*D:
*M2/2	*	*	*M2/2	*	*M2/2	*	*M2/2	*	*M2/2	*M2/2	*M2/2	*	*M2/2	*M2/2	*M2/2	*M2/2	*M2/2
*met(c|)	*	*	*met(c|)	*	*met(c|)	*	*met(c|)	*	*met(c|)	*met(c|)	*met(c|)	*	*met(c|)	*met(c|)	*met(c|)	*met(c|)	*met(c|)
=	=	=	=	=	=	=	=	=	=	=	=	=	=	=	=	=	=
!	!	!	!	!	!LO:TX:a:i:rj:t=Cantabile	!	!LO:TX:a:i:t=Cantabile	!	!LO:TX:a:i:t=Mater. Christi. Tacet.	!LO:TX:a:i:t=Mater. Christi. Tacet.	!LO:TX:a:t=40	!	!LO:TX:a:i:t=Mater. Chriſti. Tacet.	!LO:TX:a:i:t=Mater Christi Tacet	!LO:TX:a:i:t=Mater Christi. Tacet	!LO:TX:a:i:t=Mater. Chisti. Tacet	!LO:TX:a:i:t=Mater Chrÿsti Tacet
2.ryy	.	.	2.ryy	.	2.ryy	.	2.ryy	.	1ryy	1ryy	00r	.	1ryy	1ryy	1ryy	1ryy	1ryy
8ryy	.	.	8ryy	.	8ryy	.	8ryy	.	.	.	.	.	.	.	.	.	.
!LO:TX:b:i:t=Solo	!	!	!	!	!	!	!	!	!	!	!	!	!	!	!	!	!
8r	.	.	(32f#\LLL	.	8r	.	8r	.	.	.	.	.	.	.	.	.	.
.	.	.	32a\)	.	.	.	.	.	.	.	.	.	.	.	.	.	.
.	.	.	(32g\	.	.	.	.	.	.	.	.	.	.	.	.	.	.
.	.	.	32b\JJJ)	.	.	.	.	.	.	.	.	.	.	.	.	.	.
=1	=1	=1	=1	=1	=1	=1	=1	=1	=1	=1	=1	=1	=1	=1	=1	=1	=1
4r	.	.	8a\L	.	4r	.	4r	.	1ryy	1ryy	.	.	1ryy	1ryy	1ryy	1ryy	1ryy
.	.	.	8f#\J	.	.	.	.	.	.	.	.	.	.	.	.	.	.
*	*	*	*2\right	*	*	*	*	*	*	*	*	*	*	*	*	*	*
!	!	!	!	!	!	!LO:DY:b:t=mezzo	!	!LO:DY:b:t=mezzo	!	!	!	!	!	!	!	!	!
4D\	.	.	2d\	.	4f#'/	mf	4a'/	mf	.	.	.	.	.	.	.	.	.
4D\	.	.	.	.	4f#'/	.	4a'/	.	.	.	.	.	.	.	.	.	.
4D\	.	.	8a\L	.	4f#'/	.	4a'/	.	.	.	.	.	.	.	.	.	.
.	.	.	8dd\J	.	.	.	.	.	.	.	.	.	.	.	.	.	.
=2	=2	=2	=2	=2	=2	=2	=2	=2	=2	=2	=2	=2	=2	=2	=2	=2	=2
4r	.	.	8.ddT\L	.	4r	.	4r	.	1ryy	1ryy	.	.	1ryy	1ryy	1ryy	1ryy	1ryy
.	.	.	32cc#\LL	.	.	.	.	.	.	.	.	.	.	.	.	.	.
.	.	.	32dd\JJJ	.	.	.	.	.	.	.	.	.	.	.	.	.	.
!	!	!	!	!	!	!LO:DY:b:t=forte	!	!LO:DY:b:t=forte	!	!	!	!	!	!	!	!	!
4E\	.	.	4cc#\	.	4g'/	mf	4a'/	mf	.	.	.	.	.	.	.	.	.
4E\	.	.	4r	.	4g'/	.	4a'/	.	.	.	.	.	.	.	.	.	.
4E\	.	.	8r	.	4g'/	.	4a'/	.	.	.	.	.	.	.	.	.	.
.	.	.	(32c#\LLL	.	.	.	.	.	.	.	.	.	.	.	.	.	.
.	.	.	32e\)	.	.	.	.	.	.	.	.	.	.	.	.	.	.
.	.	.	(32d\	.	.	.	.	.	.	.	.	.	.	.	.	.	.
.	.	.	32f#\JJJ)	.	.	.	.	.	.	.	.	.	.	.	.	.	.
=3	=3	=3	=3	=3	=3	=3	=3	=3	=3	=3	=3	=3	=3	=3	=3	=3	=3
*	*	*	*	*	*	*	*^	*	*	*	*	*	*	*	*	*	*
4r	.	.	8e\L	.	4r	.	4r	4ryy	.	1ryy	1ryy	.	.	1ryy	1ryy	1ryy	1ryy	1ryy
.	.	.	8c#\J	.	.	.	.	.	.	.	.	.	.	.	.	.	.	.
4C#/	.	.	2A/	.	4e'/	.	4a'/	4g\	.	.	.	.	.	.	.	.	.	.
4C#/	.	.	.	.	4e'/	.	4a'/	4g\	.	.	.	.	.	.	.	.	.	.
4C#/	.	.	8ee\L	.	4e'/	.	4a'/	4g\	.	.	.	.	.	.	.	.	.	.
.	.	.	8g\J	.	.	.	.	.	.	.	.	.	.	.	.	.	.	.
*	*	*	*	*	*	*	*v	*v	*	*	*	*	*	*	*	*	*	*
=4	=4	=4	=4	=4	=4	=4	=4	=4	=4	=4	=4	=4	=4	=4	=4	=4	=4
4r	.	.	8.g\L	.	4r	.	4r	.	1ryy	1ryy	00r	.	1ryy	1ryy	1ryy	1ryy	1ryy
.	.	.	32f#\LL	.	.	.	.	.	.	.	.	.	.	.	.	.	.
.	.	.	32g\JJJ	.	.	.	.	.	.	.	.	.	.	.	.	.	.
4D\	.	.	4f#\	.	4f#'/	.	4a'/	.	.	.	.	.	.	.	.	.	.
4D\	.	.	4r	.	4f#'/	.	4a'/	.	.	.	.	.	.	.	.	.	.
4D\	.	.	8r	.	4f#'/	.	4a'/	.	.	.	.	.	.	.	.	.	.
.	.	.	(32cc#\LLL	.	.	.	.	.	.	.	.	.	.	.	.	.	.
.	.	.	32dd\)	.	.	.	.	.	.	.	.	.	.	.	.	.	.
.	.	.	(32cc#\	.	.	.	.	.	.	.	.	.	.	.	.	.	.
.	.	.	32dd\JJJ)	.	.	.	.	.	.	.	.	.	.	.	.	.	.
=5	=5	=5	=5	=5	=5	=5	=5	=5	=5	=5	=5	=5	=5	=5	=5	=5	=5
4r	.	.	4.b\	.	4r	.	4.g/	.	1ryy	1ryy	.	.	1ryy	1ryy	1ryy	1ryy	1ryy
4G\	.	.	.	.	4b\	.	.	.	.	.	.	.	.	.	.	.	.
.	.	.	8ee\	.	.	.	8g/	.	.	.	.	.	.	.	.	.	.
4A\	4	.	8.ff#\L	.	4a/	.	(8a/L	.	.	.	.	.	.	.	.	.	.
.	.	.	.	.	.	.	8g/	.	.	.	.	.	.	.	.	.	.
.	.	.	16ee\K	.	.	.	.	.	.	.	.	.	.	.	.	.	.
4AA/	3	.	8.dd\	.	4a/	.	8f#/	.	.	.	.	.	.	.	.	.	.
.	.	.	.	.	.	.	8e/J)	.	.	.	.	.	.	.	.	.	.
.	.	.	16cc#\Jk	.	.	.	.	.	.	.	.	.	.	.	.	.	.
!	!	!	!LO:LB:g=original	!	!	!	!	!	!	!	!	!	!	!	!	!	!
=6	=6	=6	=6	=6	=6	=6	=6	=6	=6	=6	=6	=6	=6	=6	=6	=6	=6
4D\	3	.	4dd\	.	4a/	.	4f#/	.	1ryy	1ryy	.	.	1ryy	1ryy	1ryy	1ryy	1ryy
4DD/	.	.	(16dd\LL	.	4f#/	.	4a/	.	.	.	.	.	.	.	.	.	.
.	.	.	16cc#\	.	.	.	.	.	.	.	.	.	.	.	.	.	.
.	.	.	16dd\	.	.	.	.	.	.	.	.	.	.	.	.	.	.
.	.	.	16ee\JJ)	.	.	.	.	.	.	.	.	.	.	.	.	.	.
4D\	.	.	4dd\	.	4f#/	.	4a/	.	.	.	.	.	.	.	.	.	.
4r	.	.	4a\	.	4r	.	4r	.	.	.	.	.	.	.	.	.	.
*	*	*	*clefG2	*	*	*	*	*	*	*	*	*	*	*	*	*	*
!LO:LB:g=original	!	!	!	!	!LO:LB:g=original	!	!LO:LB:g=original	!	!	!	!	!	!	!	!	!	!
=7	=7	=7	=7	=7	=7	=7	=7	=7	=7	=7	=7	=7	=7	=7	=7	=7	=7
*	*	*	*k[f#c#]	*	*	*	*	*	*	*	*	*	*	*	*	*	*
!	!	!	!LO:TX:a:t=Violino	!	!	!	!	!	!	!	!	!	!	!	!	!	!
4r	.	.	2ff# 2a 2d/	.	4r	.	4r	.	1ryy	1ryy	.	.	1ryy	1ryy	1ryy	1ryy	1ryy
4D\	.	.	.	.	4f#'/	.	4a'/	.	.	.	.	.	.	.	.	.	.
!	!	!	!LO:TUP:b:problem:klamra łukowa	!	!	!	!	!	!	!	!	!	!	!	!	!	!
4D\	.	.	12d/L	.	4f#'/	.	4a'/	.	.	.	.	.	.	.	.	.	.
.	.	.	12A/	.	.	.	.	.	.	.	.	.	.	.	.	.	.
.	.	.	12d/J	.	.	.	.	.	.	.	.	.	.	.	.	.	.
!	!	!	!LO:TUP:b:problem:klamra łukowa	!	!	!	!	!	!	!	!	!	!	!	!	!	!
4D\	.	.	12f#/L	.	4f#'/	.	4a'/	.	.	.	.	.	.	.	.	.	.
.	.	.	12d/	.	.	.	.	.	.	.	.	.	.	.	.	.	.
.	.	.	12f#/J	.	.	.	.	.	.	.	.	.	.	.	.	.	.
=8	=8	=8	=8	=8	=8	=8	=8	=8	=8	=8	=8	=8	=8	=8	=8	=8	=8
!	!	!	!LO:TUP:b:problem:klamra łukowa	!	!	!	!	!	!	!	!	!	!	!	!	!	!
4r	.	.	12a/L	.	4r	.	4r	.	1ryy	1ryy	00r	.	1ryy	1ryy	1ryy	1ryy	1ryy
.	.	.	12f#/	.	.	.	.	.	.	.	.	.	.	.	.	.	.
.	.	.	12a/J	.	.	.	.	.	.	.	.	.	.	.	.	.	.
!	!	!	!LO:TUP:a:problem:klamra łukowa	!	!	!	!	!	!	!	!	!	!	!	!	!	!
4D\	.	.	12dd\L	.	4f#'/	.	4a'/	.	.	.	.	.	.	.	.	.	.
.	.	.	12a\	.	.	.	.	.	.	.	.	.	.	.	.	.	.
.	.	.	12dd\J	.	.	.	.	.	.	.	.	.	.	.	.	.	.
*	*	*	*Xtuplet	*	*	*	*	*	*	*	*	*	*	*	*	*	*
4D\	.	.	12ff#\L	.	4f#'/	.	4a'/	.	.	.	.	.	.	.	.	.	.
.	.	.	12dd\	.	.	.	.	.	.	.	.	.	.	.	.	.	.
.	.	.	12ff#\J	.	.	.	.	.	.	.	.	.	.	.	.	.	.
4D\	.	.	8aa\L	.	4f#'/	.	4a'/	.	.	.	.	.	.	.	.	.	.
.	.	.	8ff#\J	.	.	.	.	.	.	.	.	.	.	.	.	.	.
=9	=9	=9	=9	=9	=9	=9	=9	=9	=9	=9	=9	=9	=9	=9	=9	=9	=9
4r	.	.	8.ff#t\L	.	4r	.	4r	.	1ryy	1ryy	.	.	1ryy	1ryy	1ryy	1ryy	1ryy
.	.	.	32ee\LL	.	.	.	.	.	.	.	.	.	.	.	.	.	.
.	.	.	32ff#\JJJ	.	.	.	.	.	.	.	.	.	.	.	.	.	.
4C#/	.	.	4ee\	.	4e'/	.	4a'/	.	.	.	.	.	.	.	.	.	.
4C#/	.	.	8r	.	4e'/	.	4a'/	.	.	.	.	.	.	.	.	.	.
.	.	.	8a|\L	.	.	.	.	.	.	.	.	.	.	.	.	.	.
4C#/	.	.	8cc#|\	.	4e'/	.	4a'/	.	.	.	.	.	.	.	.	.	.
.	.	.	8ee|\J	.	.	.	.	.	.	.	.	.	.	.	.	.	.
=10	=10	=10	=10	=10	=10	=10	=10	=10	=10	=10	=10	=10	=10	=10	=10	=10	=10
*	*	*	*tuplet	*	*	*	*	*	*	*	*	*	*	*	*	*	*
!	!	!	!LO:TUP:a:problem:klamra łukowa	!	!	!	!	!	!	!	!	!	!	!	!	!	!
4r	.	.	12dd\L	.	4r	.	4r	.	1ryy	1ryy	.	.	1ryy	1ryy	1ryy	1ryy	1ryy
.	.	.	12cc#\	.	.	.	.	.	.	.	.	.	.	.	.	.	.
.	.	.	12b\J	.	.	.	.	.	.	.	.	.	.	.	.	.	.
!	!	!	!LO:TUP:b:problem:klamra łukowa	!	!	!	!	!	!	!	!	!	!	!	!	!	!
4E\	#	.	12a/L	.	4g#X'/	.	4b'\	.	.	.	.	.	.	.	.	.	.
.	.	.	12g#X/	.	.	.	.	.	.	.	.	.	.	.	.	.	.
.	.	.	12f#/J	.	.	.	.	.	.	.	.	.	.	.	.	.	.
!	!	!	!LO:TUP:b:problem:klamra łukowa	!	!	!	!	!	!	!	!	!	!	!	!	!	!
4E\	.	.	12e/L	.	4g#'/	.	4b'\	.	.	.	.	.	.	.	.	.	.
.	.	.	12g#X/	.	.	.	.	.	.	.	.	.	.	.	.	.	.
.	.	.	12a/J	.	.	.	.	.	.	.	.	.	.	.	.	.	.
!	!	!	!LO:TUP:a:problem:klamra łukowa	!	!	!	!	!	!	!	!	!	!	!	!	!	!
4E\	.	.	12b\L	.	4g#'/	.	4b'\	.	.	.	.	.	.	.	.	.	.
.	.	.	12cc#\	.	.	.	.	.	.	.	.	.	.	.	.	.	.
.	.	.	12dd\J	.	.	.	.	.	.	.	.	.	.	.	.	.	.
!	!	!	!LO:LB:g=original	!	!	!	!	!	!	!	!	!	!	!	!	!	!
=11	=11	=11	=11	=11	=11	=11	=11	=11	=11	=11	=11	=11	=11	=11	=11	=11	=11
!LO:TX:t=P:problem:brak 2 taktów	!	!	!	!	!	!	!	!	!	!	!	!	!	!	!	!	!
1ryy	.	.	8cc#\L	.	4r	.	4r	.	1ryy	1ryy	.	.	1ryy	1ryy	1ryy	1ryy	1ryy
.	.	.	8ee\J	.	.	.	.	.	.	.	.	.	.	.	.	.	.
.	.	.	2ee\	.	4e'/	.	4cc#'\	.	.	.	.	.	.	.	.	.	.
.	.	.	.	.	4e'/	.	4cc#'\	.	.	.	.	.	.	.	.	.	.
!	!	!	!LO:TUP:a:problem:klamra łukowa	!	!	!	!	!	!	!	!	!	!	!	!	!	!
.	.	.	12aa\L	.	4e'/	.	4cc#'\	.	.	.	.	.	.	.	.	.	.
.	.	.	12ee\	.	.	.	.	.	.	.	.	.	.	.	.	.	.
.	.	.	12cc#\J	.	.	.	.	.	.	.	.	.	.	.	.	.	.
=12	=12	=12	=12	=12	=12	=12	=12	=12	=12	=12	=12	=12	=12	=12	=12	=12	=12
*	*	*	*Xtuplet	*	*	*	*	*	*	*	*	*	*	*	*	*	*
1ryy	.	.	12dd\L	.	4r	.	4r	.	1ryy	1ryy	00r	.	1ryy	1ryy	1ryy	1ryy	1ryy
.	.	.	12cc#\	.	.	.	.	.	.	.	.	.	.	.	.	.	.
.	.	.	12b\J	.	.	.	.	.	.	.	.	.	.	.	.	.	.
.	.	.	12a/L	.	4g#X'/	.	4b'\	.	.	.	.	.	.	.	.	.	.
.	.	.	12g#X/	.	.	.	.	.	.	.	.	.	.	.	.	.	.
.	.	.	12f#/J	.	.	.	.	.	.	.	.	.	.	.	.	.	.
.	.	.	12e/L	.	4g#'/	.	4b'\	.	.	.	.	.	.	.	.	.	.
.	.	.	12f#/	.	.	.	.	.	.	.	.	.	.	.	.	.	.
.	.	.	12e/J	.	.	.	.	.	.	.	.	.	.	.	.	.	.
.	.	.	12d/L	.	4g#'/	.	4b'\	.	.	.	.	.	.	.	.	.	.
.	.	.	12c#/	.	.	.	.	.	.	.	.	.	.	.	.	.	.
.	.	.	12B/J	.	.	.	.	.	.	.	.	.	.	.	.	.	.
=13	=13	=13	=13	=13	=13	=13	=13	=13	=13	=13	=13	=13	=13	=13	=13	=13	=13
*	*	*	*	*	*	*	*2\right	*	*	*	*	*	*	*	*	*	*
2AA/	.	.	16c#/LL	.	2e/	.	2cc#\	.	1ryy	1ryy	.	.	1ryy	1ryy	1ryy	1ryy	1ryy
.	.	.	16A/	.	.	.	.	.	.	.	.	.	.	.	.	.	.
.	.	.	(16B/	.	.	.	.	.	.	.	.	.	.	.	.	.	.
.	.	.	16c#/JJ	.	.	.	.	.	.	.	.	.	.	.	.	.	.
.	.	.	16d/LL	.	.	.	.	.	.	.	.	.	.	.	.	.	.
.	.	.	16e/	.	.	.	.	.	.	.	.	.	.	.	.	.	.
.	.	.	16f#/)	.	.	.	.	.	.	.	.	.	.	.	.	.	.
.	.	.	16g#X/JJ	.	.	.	.	.	.	.	.	.	.	.	.	.	.
4r	.	.	(16a\LL	.	4r	.	4r	.	.	.	.	.	.	.	.	.	.
.	.	.	16b\	.	.	.	.	.	.	.	.	.	.	.	.	.	.
.	.	.	16cc#\	.	.	.	.	.	.	.	.	.	.	.	.	.	.
.	.	.	16dd\JJ)	.	.	.	.	.	.	.	.	.	.	.	.	.	.
8r	.	.	8ee\L	.	8r	.	8r	.	.	.	.	.	.	.	.	.	.
8AA/	.	.	8cc#\J	.	8e/	.	8a/	.	.	.	.	.	.	.	.	.	.
=14	=14	=14	=14	=14	=14	=14	=14	=14	=14	=14	=14	=14	=14	=14	=14	=14	=14
4.E'\	.	.	8.cc#t\L	.	4e/	.	4a/	.	1ryy	1ryy	.	.	1ryy	1ryy	1ryy	1ryy	1ryy
.	.	.	32b\LL	.	.	.	.	.	.	.	.	.	.	.	.	.	.
.	.	.	32cc#\JJJ	.	.	.	.	.	.	.	.	.	.	.	.	.	.
!	!	!	!	!	!	!LO:DY:b:t=forte	!	!	!	!	!	!	!	!	!	!	!
.	.	.	4b\	.	8e/L	f	8g/L	.	.	.	.	.	.	.	.	.	.
8E'\	.	.	.	.	8e/J	.	8e/J	.	.	.	.	.	.	.	.	.	.
!	!	!	!	!	!	!	!	!LO:DY:b:rj:t=for&colon;	!	!	!	!	!	!	!	!	!
8BB'/L	.	.	2r	.	8B'/L	.	8B/L	f	.	.	.	.	.	.	.	.	.
8GG#X'/	.	.	.	.	8G#X'/	.	8G#X/	.	.	.	.	.	.	.	.	.	.
8BB'/	.	.	.	.	8B'/	.	8B/	.	.	.	.	.	.	.	.	.	.
8E'/J	.	.	.	.	8e'/J	.	8e/J	.	.	.	.	.	.	.	.	.	.
!	!	!	!	!	!LO:LB:g=original	!	!LO:LB:g=original	!	!	!	!	!	!	!	!	!	!
=15	=15	=15	=15	=15	=15	=15	=15	=15	=15	=15	=15	=15	=15	=15	=15	=15	=15
!	!	!	!	!	!	!LO:DY:b:t=piano	!	!	!	!	!	!	!	!	!	!	!
4E\	7 5	.	8r	.	4b\	p	4dd\	.	1ryy	1ryy	.	.	1ryy	1ryy	1ryy	1ryy	1ryy
!	!	!	!LO:TX:b:i:t=pizzicato	!	!	!	!	!	!	!	!	!	!	!	!	!	!
.	.	.	8ee\	.	.	.	.	.	.	.	.	.	.	.	.	.	.
4r	.	.	8r	.	4a\	.	4cc#\	.	.	.	.	.	.	.	.	.	.
.	.	.	8ee\	.	.	.	.	.	.	.	.	.	.	.	.	.	.
4E\	#	.	8r	.	4g#X\	.	4b\	.	.	.	.	.	.	.	.	.	.
.	.	.	8ee\	.	.	.	.	.	.	.	.	.	.	.	.	.	.
4G#X\	5 3	.	8r	.	4b\	.	4dd\	.	.	.	.	.	.	.	.	.	.
.	.	.	8ee\	.	.	.	.	.	.	.	.	.	.	.	.	.	.
!	!	!	!LO:LB:g=original	!	!	!	!	!	!	!	!	!	!	!	!	!	!
=16	=16	=16	=16	=16	=16	=16	=16	=16	=16	=16	=16	=16	=16	=16	=16	=16	=16
!	!	!	!LO:TX:b:t=Colarco	!	!	!	!	!	!	!	!	!	!	!	!	!	!
4A\	3	.	16cc#\LL	.	4a\	.	4cc#\	.	1ryy	1ryy	00r	.	1ryy	1ryy	1ryy	1ryy	1ryy
.	.	.	16a\	.	.	.	.	.	.	.	.	.	.	.	.	.	.
.	.	.	16b\	.	.	.	.	.	.	.	.	.	.	.	.	.	.
.	.	.	16cc#\JJ	.	.	.	.	.	.	.	.	.	.	.	.	.	.
4AA/	.	.	16dd\LL	.	4cc#\	.	4ee\	.	.	.	.	.	.	.	.	.	.
.	.	.	16ee\	.	.	.	.	.	.	.	.	.	.	.	.	.	.
.	.	.	16ff#\	.	.	.	.	.	.	.	.	.	.	.	.	.	.
.	.	.	16gg#X\JJ	.	.	.	.	.	.	.	.	.	.	.	.	.	.
2r	.	.	8aa'\L	.	2r	.	2r	.	.	.	.	.	.	.	.	.	.
.	.	.	8ee'\	.	.	.	.	.	.	.	.	.	.	.	.	.	.
.	.	.	8cc#'\	.	.	.	.	.	.	.	.	.	.	.	.	.	.
.	.	.	8a'\J	.	.	.	.	.	.	.	.	.	.	.	.	.	.
=17	=17	=17	=17	=17	=17	=17	=17	=17	=17	=17	=17	=17	=17	=17	=17	=17	=17
4E\	7 5	.	8r	.	4b\	.	4dd\	.	1ryy	1ryy	.	.	1ryy	1ryy	1ryy	1ryy	1ryy
!	!	!	!LO:TX:b:i:t=pizzicato	!	!	!	!	!	!	!	!	!	!	!	!	!	!
.	.	.	8ee\	.	.	.	.	.	.	.	.	.	.	.	.	.	.
4r	.	.	8r	.	4a\	.	4cc#\	.	.	.	.	.	.	.	.	.	.
.	.	.	8ee\	.	.	.	.	.	.	.	.	.	.	.	.	.	.
4E\	#	.	8r	.	4g#X\	.	4b\	.	.	.	.	.	.	.	.	.	.
.	.	.	8ee\	.	.	.	.	.	.	.	.	.	.	.	.	.	.
4G#X\	5 3	.	8r	.	4b\	.	4dd\	.	.	.	.	.	.	.	.	.	.
.	.	.	8ee\	.	.	.	.	.	.	.	.	.	.	.	.	.	.
!LO:LB:g=original	!	!	!	!	!	!	!	!	!	!	!	!	!	!	!	!	!
=18	=18	=18	=18	=18	=18	=18	=18	=18	=18	=18	=18	=18	=18	=18	=18	=18	=18
!	!	!	!LO:TX:b:t=Colarco	!	!	!	!	!	!	!	!	!	!	!	!	!	!
4A\	3	.	16cc#\LL	.	4a\	.	4cc#\	.	1ryy	1ryy	.	.	1ryy	1ryy	1ryy	1ryy	1ryy
.	.	.	16a\	.	.	.	.	.	.	.	.	.	.	.	.	.	.
.	.	.	(16b\	.	.	.	.	.	.	.	.	.	.	.	.	.	.
.	.	.	16cc#\JJ	.	.	.	.	.	.	.	.	.	.	.	.	.	.
4AA/	.	.	16dd\LL	.	4cc#\	.	4ee\	.	.	.	.	.	.	.	.	.	.
.	.	.	16ee\)	.	.	.	.	.	.	.	.	.	.	.	.	.	.
.	.	.	16ff#\	.	.	.	.	.	.	.	.	.	.	.	.	.	.
.	.	.	16gg#X\JJ	.	.	.	.	.	.	.	.	.	.	.	.	.	.
2r	.	.	8aa\L	.	2r	.	2r	.	.	.	.	.	.	.	.	.	.
.	.	.	8gg#X\	.	.	.	.	.	.	.	.	.	.	.	.	.	.
.	.	.	8ff#\	.	.	.	.	.	.	.	.	.	.	.	.	.	.
!	!	!	!	!LO:DY:b	!	!	!	!	!	!	!	!	!	!	!	!	!
.	.	.	8ee#X\J	f	.	.	.	.	.	.	.	.	.	.	.	.	.
=19	=19	=19	=19	=19	=19	=19	=19	=19	=19	=19	=19	=19	=19	=19	=19	=19	=19
!	!	!	!LO:TX:t=P:problem:mixed beam	!	!	!	!	!LO:DY:b:t=mezzo forte	!	!	!	!	!	!	!	!	!
4r	.	.	8ff#\L	.	4r	.	4dd\	mf	1ryy	1ryy	.	.	1ryy	1ryy	1ryy	1ryy	1ryy
.	.	.	8d/J	.	.	.	.	.	.	.	.	.	.	.	.	.	.
!	!	!	!	!	!	!LO:DY:b:t=Mezzo forte	!	!	!	!	!	!	!	!	!	!	!
4D\	5	.	4ff#\	.	4a'/	mf	4dd\	.	.	.	.	.	.	.	.	.	.
4D\	.	.	(16ff#\LL	.	4a'/	.	8dd'\L	.	.	.	.	.	.	.	.	.	.
.	.	.	16ggn\)	.	.	.	.	.	.	.	.	.	.	.	.	.	.
.	.	.	(16ee\	.	.	.	8cc#'\	.	.	.	.	.	.	.	.	.	.
.	.	.	16ff#\JJ)	.	.	.	.	.	.	.	.	.	.	.	.	.	.
4D\	.	.	8dd\L	.	4a'/	.	8b'\	.	.	.	.	.	.	.	.	.	.
.	.	.	8cc#\J	.	.	.	8a#X'\J	.	.	.	.	.	.	.	.	.	.
!	!	!	!LO:LB:g=original	!	!	!	!	!	!	!	!	!	!	!	!	!	!
=20	=20	=20	=20	=20	=20	=20	=20	=20	=20	=20	=20	=20	=20	=20	=20	=20	=20
!	!	!	!LO:TX:t=P:problem:mixed beam	!	!	!	!	!	!	!	!	!	!	!	!	!	!
4r	.	.	8dd\L	.	4r	.	4b\	.	1ryy	1ryy	00r	.	1ryy	1ryy	1ryy	1ryy	1ryy
.	.	.	8B/J	.	.	.	.	.	.	.	.	.	.	.	.	.	.
4D\	.	.	4dd\	.	4b'\	.	4b\	.	.	.	.	.	.	.	.	.	.
4D\	.	.	(16dd\LL	.	4b'\	.	8b'/L	.	.	.	.	.	.	.	.	.	.
.	.	.	16ee\)	.	.	.	.	.	.	.	.	.	.	.	.	.	.
.	.	.	(16cc#\	.	.	.	8an'/	.	.	.	.	.	.	.	.	.	.
.	.	.	16dd\JJ)	.	.	.	.	.	.	.	.	.	.	.	.	.	.
4D\	.	.	8b\L	.	4b'\	.	8g#X'/	.	.	.	.	.	.	.	.	.	.
.	.	.	8a#X\J	.	.	.	8f#'/J	.	.	.	.	.	.	.	.	.	.
=21	=21	=21	=21	=21	=21	=21	=21	=21	=21	=21	=21	=21	=21	=21	=21	=21	=21
!	!	!	!LO:TX:t=P:problem:mixed beam	!	!	!	!	!	!	!	!	!	!	!	!	!	!
4r	.	.	8b\L	.	4r	.	4g#X/	.	1ryy	1ryy	.	.	1ryy	1ryy	1ryy	1ryy	1ryy
.	.	.	8G#X/J	.	.	.	.	.	.	.	.	.	.	.	.	.	.
4E\	#	.	4b\	.	4b'\	.	4g#/	.	.	.	.	.	.	.	.	.	.
4E\	.	.	16b\LL	.	4b'\	.	8g#'/L	.	.	.	.	.	.	.	.	.	.
.	.	.	16cc#\	.	.	.	.	.	.	.	.	.	.	.	.	.	.
.	.	.	16an\	.	.	.	8f#'/	.	.	.	.	.	.	.	.	.	.
.	.	.	16b\JJ	.	.	.	.	.	.	.	.	.	.	.	.	.	.
4E\	.	.	8g#X/L	.	4b'\	.	8e'/	.	.	.	.	.	.	.	.	.	.
.	.	.	8f#/J	.	.	.	8d#X'/J	.	.	.	.	.	.	.	.	.	.
!	!	!	!	!	!	!	!LO:LB:g=original	!	!	!	!	!	!	!	!	!	!
=22	=22	=22	=22	=22	=22	=22	=22	=22	=22	=22	=22	=22	=22	=22	=22	=22	=22
4E\	.	.	(16e/LL	.	4r	.	4r	.	1ryy	1ryy	.	.	1ryy	1ryy	1ryy	1ryy	1ryy
.	.	.	16B/	.	.	.	.	.	.	.	.	.	.	.	.	.	.
.	.	.	16e/	.	.	.	.	.	.	.	.	.	.	.	.	.	.
.	.	.	16g#X/JJ)	.	.	.	.	.	.	.	.	.	.	.	.	.	.
4r	.	.	(16b\LL	.	4g#X/	.	4b 4e/	.	.	.	.	.	.	.	.	.	.
.	.	.	16ee\	.	.	.	.	.	.	.	.	.	.	.	.	.	.
.	.	.	16b\	.	.	.	.	.	.	.	.	.	.	.	.	.	.
.	.	.	16g#X\JJ)	.	.	.	.	.	.	.	.	.	.	.	.	.	.
4E\	.	.	(16e/LL	.	4r	.	4r	.	.	.	.	.	.	.	.	.	.
.	.	.	16B/	.	.	.	.	.	.	.	.	.	.	.	.	.	.
.	.	.	16e/	.	.	.	.	.	.	.	.	.	.	.	.	.	.
.	.	.	16g#X/JJ)	.	.	.	.	.	.	.	.	.	.	.	.	.	.
4r	.	.	(16b\LL	.	4g#/	.	4b 4e/	.	.	.	.	.	.	.	.	.	.
.	.	.	16ee\	.	.	.	.	.	.	.	.	.	.	.	.	.	.
.	.	.	16b\	.	.	.	.	.	.	.	.	.	.	.	.	.	.
.	.	.	16g#X\JJ)	.	.	.	.	.	.	.	.	.	.	.	.	.	.
=23	=23	=23	=23	=23	=23	=23	=23	=23	=23	=23	=23	=23	=23	=23	=23	=23	=23
4E\	.	.	(16e/LL	.	4r	.	4r	.	1ryy	1ryy	.	.	1ryy	1ryy	1ryy	1ryy	1ryy
.	.	.	16c#/	.	.	.	.	.	.	.	.	.	.	.	.	.	.
.	.	.	16e/	.	.	.	.	.	.	.	.	.	.	.	.	.	.
.	.	.	16a/JJ)	.	.	.	.	.	.	.	.	.	.	.	.	.	.
4r	.	.	(16cc#\LL	.	4a/	.	4cc# 4e/	.	.	.	.	.	.	.	.	.	.
.	.	.	16ee\	.	.	.	.	.	.	.	.	.	.	.	.	.	.
.	.	.	16cc#\	.	.	.	.	.	.	.	.	.	.	.	.	.	.
.	.	.	16a\JJ)	.	.	.	.	.	.	.	.	.	.	.	.	.	.
!	!	!	!LO:LB:g=original	!	!	!	!	!	!	!	!	!	!	!	!	!	!
4E\	.	.	(16e/LL	.	4r	.	4r	.	.	.	.	.	.	.	.	.	.
.	.	.	16c#/	.	.	.	.	.	.	.	.	.	.	.	.	.	.
.	.	.	16e/	.	.	.	.	.	.	.	.	.	.	.	.	.	.
.	.	.	16a/JJ)	.	.	.	.	.	.	.	.	.	.	.	.	.	.
4r	.	.	(16cc#\LL	.	4a/	.	4cc# 4e/	.	.	.	.	.	.	.	.	.	.
.	.	.	16ee\	.	.	.	.	.	.	.	.	.	.	.	.	.	.
.	.	.	16cc#\	.	.	.	.	.	.	.	.	.	.	.	.	.	.
.	.	.	16a\JJ)	.	.	.	.	.	.	.	.	.	.	.	.	.	.
=24	=24	=24	=24	=24	=24	=24	=24	=24	=24	=24	=24	=24	=24	=24	=24	=24	=24
4E\	.	.	(16e/LL	.	4r	.	4r	.	1ryy	1ryy	00r	.	1ryy	1ryy	1ryy	1ryy	1ryy
.	.	.	16d#X/	.	.	.	.	.	.	.	.	.	.	.	.	.	.
.	.	.	16e/	.	.	.	.	.	.	.	.	.	.	.	.	.	.
.	.	.	16g#X/JJ)	.	.	.	.	.	.	.	.	.	.	.	.	.	.
4r	.	.	(16b\LL	.	4b\	.	4dd 4e/	.	.	.	.	.	.	.	.	.	.
.	.	.	16ee\	.	.	.	.	.	.	.	.	.	.	.	.	.	.
.	.	.	16ddn\	.	.	.	.	.	.	.	.	.	.	.	.	.	.
.	.	.	16b\JJ)	.	.	.	.	.	.	.	.	.	.	.	.	.	.
4E\	.	.	(16e/LL	.	4r	.	4r	.	.	.	.	.	.	.	.	.	.
.	.	.	16d#X/	.	.	.	.	.	.	.	.	.	.	.	.	.	.
.	.	.	16e/	.	.	.	.	.	.	.	.	.	.	.	.	.	.
.	.	.	16f#X/JJ)	.	.	.	.	.	.	.	.	.	.	.	.	.	.
4r	.	.	(16b\LL	.	4b\	.	4dd 4e/	.	.	.	.	.	.	.	.	.	.
.	.	.	16ee\	.	.	.	.	.	.	.	.	.	.	.	.	.	.
.	.	.	16ddn\	.	.	.	.	.	.	.	.	.	.	.	.	.	.
.	.	.	16b\JJ)	.	.	.	.	.	.	.	.	.	.	.	.	.	.
!	!	!	!	!	!LO:LB:g=original	!	!	!	!	!	!	!	!	!	!	!	!
=25	=25	=25	=25	=25	=25	=25	=25	=25	=25	=25	=25	=25	=25	=25	=25	=25	=25
*	*	*	*	*	*^	*	*	*	*	*	*	*	*	*	*	*	*
4AA/	.	.	(16cc#\LL	.	4a/	4ryy	.	4cc# 4e/	.	1ryy	1ryy	.	.	1ryy	1ryy	1ryy	1ryy	1ryy
.	.	.	16ee\	.	.	.	.	.	.	.	.	.	.	.	.	.	.	.
.	.	.	16cc#\	.	.	.	.	.	.	.	.	.	.	.	.	.	.	.
.	.	.	16a\JJ)	.	.	.	.	.	.	.	.	.	.	.	.	.	.	.
4E\	.	.	(16dd\LL	.	4b/	4g#X\	.	4dd 4e/	.	.	.	.	.	.	.	.	.	.
.	.	.	16ee\	.	.	.	.	.	.	.	.	.	.	.	.	.	.	.
.	.	.	16dd\	.	.	.	.	.	.	.	.	.	.	.	.	.	.	.
.	.	.	16b\JJ)	.	.	.	.	.	.	.	.	.	.	.	.	.	.	.
4AA/	.	.	16cc#\LL	.	4a/	4ryy	.	4cc# 4e/	.	.	.	.	.	.	.	.	.	.
.	.	.	16ee\	.	.	.	.	.	.	.	.	.	.	.	.	.	.	.
.	.	.	16cc#\	.	.	.	.	.	.	.	.	.	.	.	.	.	.	.
.	.	.	16a\JJ	.	.	.	.	.	.	.	.	.	.	.	.	.	.	.
4E\	.	.	16dd\LL	.	4b/	4g#X\	.	4dd 4e/	.	.	.	.	.	.	.	.	.	.
.	.	.	16ee\	.	.	.	.	.	.	.	.	.	.	.	.	.	.	.
.	.	.	16dd\	.	.	.	.	.	.	.	.	.	.	.	.	.	.	.
.	.	.	16b\JJ	.	.	.	.	.	.	.	.	.	.	.	.	.	.	.
=26	=26	=26	=26	=26	=26	=26	=26	=26	=26	=26	=26	=26	=26	=26	=26	=26	=26	=26
!	!	!LO:DY:b:t=piano	!	!	!	!	!LO:DY:b:t=piano	!	!	!	!	!	!	!	!	!	!	!
4AA/	.	p	16cc#\LL	.	4a/	4ryy	p	4cc# 4e/	.	1ryy	1ryy	.	.	1ryy	1ryy	1ryy	1ryy	1ryy
.	.	.	16ee\	.	.	.	.	.	.	.	.	.	.	.	.	.	.	.
.	.	.	16cc#\	.	.	.	.	.	.	.	.	.	.	.	.	.	.	.
.	.	.	16a\JJ	.	.	.	.	.	.	.	.	.	.	.	.	.	.	.
4E\	.	.	16dd\LL	.	4b/	4g#X\	.	4dd 4e/	.	.	.	.	.	.	.	.	.	.
.	.	.	16ee\	.	.	.	.	.	.	.	.	.	.	.	.	.	.	.
.	.	.	16dd\	.	.	.	.	.	.	.	.	.	.	.	.	.	.	.
.	.	.	16b\JJ	.	.	.	.	.	.	.	.	.	.	.	.	.	.	.
!	!	!	!LO:LB:g=original	!	!	!	!	!	!	!	!	!	!	!	!	!	!	!
4AA/	.	.	16cc#\LL	.	4a/	4ryy	.	4cc# 4e/	.	.	.	.	.	.	.	.	.	.
.	.	.	16ee\	.	.	.	.	.	.	.	.	.	.	.	.	.	.	.
.	.	.	16cc#\	.	.	.	.	.	.	.	.	.	.	.	.	.	.	.
.	.	.	16a\JJ	.	.	.	.	.	.	.	.	.	.	.	.	.	.	.
4E\	.	.	(16dd\LL	.	4b/	4g#X\	.	4dd 4e/	.	.	.	.	.	.	.	.	.	.
.	.	.	16ee\	.	.	.	.	.	.	.	.	.	.	.	.	.	.	.
.	.	.	16dd\	.	.	.	.	.	.	.	.	.	.	.	.	.	.	.
.	.	.	16b\JJ)	.	.	.	.	.	.	.	.	.	.	.	.	.	.	.
*	*	*	*	*	*v	*v	*	*	*	*	*	*	*	*	*	*	*	*
=27	=27	=27	=27	=27	=27	=27	=27	=27	=27	=27	=27	=27	=27	=27	=27	=27	=27
!	!	!	!LO:TX:t=P:problem:mixed beam	!	!	!	!	!	!	!	!	!	!	!	!	!	!
2AA/	.	.	16cc#\LL	.	2a/	.	2cc# 2e/	.	1ryy	1ryy	.	.	1ryy	1ryy	1ryy	1ryy	1ryy
.	.	.	16A/	.	.	.	.	.	.	.	.	.	.	.	.	.	.
.	.	.	(16B/	.	.	.	.	.	.	.	.	.	.	.	.	.	.
.	.	.	16c#/JJ	.	.	.	.	.	.	.	.	.	.	.	.	.	.
.	.	.	16d/LL)	.	.	.	.	.	.	.	.	.	.	.	.	.	.
.	.	.	16e/	.	.	.	.	.	.	.	.	.	.	.	.	.	.
.	.	.	16f#/	.	.	.	.	.	.	.	.	.	.	.	.	.	.
!	!	!	!LO:SIC:v:s=16g#	!	!	!	!	!	!	!	!	!	!	!	!	!	!
.	.	.	16g/JJ	.	.	.	.	.	.	.	.	.	.	.	.	.	.
2r	.	.	16a\LL	.	2r	.	2r	.	.	.	.	.	.	.	.	.	.
.	.	.	16b\	.	.	.	.	.	.	.	.	.	.	.	.	.	.
.	.	.	(16cc#\	.	.	.	.	.	.	.	.	.	.	.	.	.	.
.	.	.	16dd\JJ	.	.	.	.	.	.	.	.	.	.	.	.	.	.
.	.	.	16ee\LL	.	.	.	.	.	.	.	.	.	.	.	.	.	.
.	.	.	16ff#\)	.	.	.	.	.	.	.	.	.	.	.	.	.	.
.	.	.	16gg#X\	.	.	.	.	.	.	.	.	.	.	.	.	.	.
.	.	.	16aa#X\JJ	.	.	.	.	.	.	.	.	.	.	.	.	.	.
!LO:LB:g=original	!	!	!	!	!	!	!LO:PB:g=original	!	!	!	!	!	!	!	!	!	!
=28	=28	=28	=28	=28	=28	=28	=28	=28	=28	=28	=28	=28	=28	=28	=28	=28	=28
4r	.	.	8ee#X\L	.	4r	.	4r	.	1ryy	1ryy	00r	.	1ryy	1ryy	1ryy	1ryy	1ryy
.	.	.	8ff#\J	.	.	.	.	.	.	.	.	.	.	.	.	.	.
.	.	.	8qqgg#X/	.	.	.	.	.	.	.	.	.	.	.	.	.	.
!	!	!	!	!	!	!LO:DY:b:t=forte	!	!	!	!	!	!	!	!	!	!	!
4D\	.	.	2ff#\	.	4f#'/	f	4a/	.	.	.	.	.	.	.	.	.	.
4D\	.	.	.	.	4f#'/	.	4a/	.	.	.	.	.	.	.	.	.	.
4D\	.	.	16een\LL	.	4f#'/	.	4a/	.	.	.	.	.	.	.	.	.	.
.	.	.	16dd\	.	.	.	.	.	.	.	.	.	.	.	.	.	.
.	.	.	16cc#\	.	.	.	.	.	.	.	.	.	.	.	.	.	.
.	.	.	16b\JJ	.	.	.	.	.	.	.	.	.	.	.	.	.	.
=29	=29	=29	=29	=29	=29	=29	=29	=29	=29	=29	=29	=29	=29	=29	=29	=29	=29
4C#/	.	.	4.ee\	.	2r	.	4a/	.	1ryy	1ryy	.	.	1ryy	1ryy	1ryy	1ryy	1ryy
4D\	.	.	.	.	.	.	2a/	.	.	.	.	.	.	.	.	.	.
.	.	.	8ff#\	.	.	.	.	.	.	.	.	.	.	.	.	.	.
4E\	4	.	4a/	.	4c#/	.	.	.	.	.	.	.	.	.	.	.	.
4EE/	#	.	4g#X/	.	4d/	.	4g#X/	.	.	.	.	.	.	.	.	.	.
=30	=30	=30	=30	=30	=30	=30	=30	=30	=30	=30	=30	=30	=30	=30	=30	=30	=30
*	*	*	*	*	*	*	*^	*	*	*	*	*	*	*	*	*	*
4AA/	.	.	2a/	.	2c#/	.	2a/	2e\	.	1ryy	1ryy	.	.	1ryy	1ryy	1ryy	1ryy	1ryy
8A'\L	.	.	.	.	.	.	.	.	.	.	.	.	.	.	.	.	.	.
8B'\J	.	.	.	.	.	.	.	.	.	.	.	.	.	.	.	.	.	.
!	!	!LO:DY:b:t=forte	!	!	!	!	!	!	!	!	!	!	!	!	!	!	!	!
8A'\L	.	f	2r	.	2r	.	2r	2ryy	.	.	.	.	.	.	.	.	.	.
8Gn'\	.	.	.	.	.	.	.	.	.	.	.	.	.	.	.	.	.	.
8F#'\	.	.	.	.	.	.	.	.	.	.	.	.	.	.	.	.	.	.
8E'\J	.	.	.	.	.	.	.	.	.	.	.	.	.	.	.	.	.	.
*	*	*	*	*	*	*	*v	*v	*	*	*	*	*	*	*	*	*	*
!	!	!	!LO:LB:g=original	!	!	!	!	!	!	!	!	!	!	!	!	!	!
=31	=31	=31	=31	=31	=31	=31	=31	=31	=31	=31	=31	=31	=31	=31	=31	=31	=31
*	*	*	*clefC3	*	*	*	*	*	*	*	*	*	*	*	*	*	*
!	!	!LO:DY:b:t=piano	!LO:TX:a:t=Alto	!	!	!	!	!	!	!	!	!	!	!	!	!	!
4D\	.	p	(16f#\LL	.	2r	.	2r	.	1ryy	1ryy	.	.	1ryy	1ryy	1ryy	1ryy	1ryy
.	.	.	16d\	.	.	.	.	.	.	.	.	.	.	.	.	.	.
.	.	.	16f#\)	.	.	.	.	.	.	.	.	.	.	.	.	.	.
.	.	.	16a\JJ	.	.	.	.	.	.	.	.	.	.	.	.	.	.
4F#\	.	.	(16dd\LL	.	.	.	.	.	.	.	.	.	.	.	.	.	.
.	.	.	16cc#\	.	.	.	.	.	.	.	.	.	.	.	.	.	.
.	.	.	16b\	.	.	.	.	.	.	.	.	.	.	.	.	.	.
.	.	.	16a\JJ)	.	.	.	.	.	.	.	.	.	.	.	.	.	.
4E\	.	.	(16a\LL	.	4r	.	4r	.	.	.	.	.	.	.	.	.	.
.	.	.	16gn\	.	.	.	.	.	.	.	.	.	.	.	.	.	.
.	.	.	16f#\	.	.	.	.	.	.	.	.	.	.	.	.	.	.
.	.	.	16g\JJ)	.	.	.	.	.	.	.	.	.	.	.	.	.	.
4AA/	.	.	(16e\LL	.	4e/	.	4cc#\	.	.	.	.	.	.	.	.	.	.
.	.	.	16g\	.	.	.	.	.	.	.	.	.	.	.	.	.	.
.	.	.	16a\	.	.	.	.	.	.	.	.	.	.	.	.	.	.
.	.	.	16g\JJ)	.	.	.	.	.	.	.	.	.	.	.	.	.	.
=32	=32	=32	=32	=32	=32	=32	=32	=32	=32	=32	=32	=32	=32	=32	=32	=32	=32
4D\	.	.	(16f#\LL	.	4f#/	.	4dd\	.	1ryy	1ryy	00r	.	1ryy	1ryy	1ryy	1ryy	1ryy
.	.	.	16d\	.	.	.	.	.	.	.	.	.	.	.	.	.	.
.	.	.	16f#\	.	.	.	.	.	.	.	.	.	.	.	.	.	.
.	.	.	16a\JJ)	.	.	.	.	.	.	.	.	.	.	.	.	.	.
4F#\	.	.	(16dd\LL	.	4r	.	4r	.	.	.	.	.	.	.	.	.	.
.	.	.	16cc#\	.	.	.	.	.	.	.	.	.	.	.	.	.	.
.	.	.	16b\	.	.	.	.	.	.	.	.	.	.	.	.	.	.
.	.	.	16a\JJ)	.	.	.	.	.	.	.	.	.	.	.	.	.	.
4E\	.	.	(16a\LL	.	4r	.	4r	.	.	.	.	.	.	.	.	.	.
.	.	.	16g\	.	.	.	.	.	.	.	.	.	.	.	.	.	.
.	.	.	16f#\	.	.	.	.	.	.	.	.	.	.	.	.	.	.
.	.	.	16g\JJ)	.	.	.	.	.	.	.	.	.	.	.	.	.	.
4AA/	.	.	(16e\LL	.	4e/	.	4cc#\	.	.	.	.	.	.	.	.	.	.
.	.	.	16g\	.	.	.	.	.	.	.	.	.	.	.	.	.	.
.	.	.	16a\	.	.	.	.	.	.	.	.	.	.	.	.	.	.
.	.	.	16g\JJ)	.	.	.	.	.	.	.	.	.	.	.	.	.	.
=33	=33	=33	=33	=33	=33	=33	=33	=33	=33	=33	=33	=33	=33	=33	=33	=33	=33
*2\right	*	*	*	*	*	*	*	*	*	*	*	*	*	*	*	*	*
!	!	!	!LO:TX:t=P:problem:mixed beam	!	!	!	!	!	!	!	!	!	!	!	!	!	!
2D\	.	.	8f#|\L	.	2a 2d/	.	2dd 2f#/	.	1ryy	1ryy	.	.	1ryy	1ryy	1ryy	1ryy	1ryy
.	.	.	8D|/	.	.	.	.	.	.	.	.	.	.	.	.	.	.
.	.	.	8F#|/	.	.	.	.	.	.	.	.	.	.	.	.	.	.
.	.	.	8D|/J	.	.	.	.	.	.	.	.	.	.	.	.	.	.
2r	.	.	8A|/L	.	2r	.	2r	.	.	.	.	.	.	.	.	.	.
.	.	.	8F#|/	.	.	.	.	.	.	.	.	.	.	.	.	.	.
.	.	.	8d|/	.	.	.	.	.	.	.	.	.	.	.	.	.	.
.	.	.	8A|/J	.	.	.	.	.	.	.	.	.	.	.	.	.	.
!	!	!	!LO:LB:g=original	!	!LO:PB:g=original	!	!	!	!	!	!	!	!	!	!	!	!
=34	=34	=34	=34	=34	=34	=34	=34	=34	=34	=34	=34	=34	=34	=34	=34	=34	=34
*	*	*	*tuplet	*	*	*	*	*	*	*	*	*	*	*	*	*	*
!	!	!	!LO:TUP:a:problem:klamra łukowa	!	!	!	!	!	!	!	!	!	!	!	!	!	!
2r	.	.	12f#\L	.	2r	.	2r	.	1ryy	1ryy	.	.	1ryy	1ryy	1ryy	1ryy	1ryy
.	.	.	12d\	.	.	.	.	.	.	.	.	.	.	.	.	.	.
.	.	.	12f#\J	.	.	.	.	.	.	.	.	.	.	.	.	.	.
!	!	!	!LO:TUP:a:problem:klamra łukowa	!	!	!	!	!	!	!	!	!	!	!	!	!	!
.	.	.	12a\L	.	.	.	.	.	.	.	.	.	.	.	.	.	.
.	.	.	12f#\	.	.	.	.	.	.	.	.	.	.	.	.	.	.
.	.	.	12a\J	.	.	.	.	.	.	.	.	.	.	.	.	.	.
4r	.	.	8dd\L	.	4r	.	4r	.	.	.	.	.	.	.	.	.	.
.	.	.	8ccn\	.	.	.	.	.	.	.	.	.	.	.	.	.	.
4D\	.	.	8b\	.	4f#/	.	4ccn\	.	.	.	.	.	.	.	.	.	.
.	.	.	8ccn\J	.	.	.	.	.	.	.	.	.	.	.	.	.	.
=35	=35	=35	=35	=35	=35	=35	=35	=35	=35	=35	=35	=35	=35	=35	=35	=35	=35
4G\	.	.	8b\L	.	4g/	.	4b\	.	1ryy	1ryy	.	.	1ryy	1ryy	1ryy	1ryy	1ryy
.	.	.	16cc#X\L	.	.	.	.	.	.	.	.	.	.	.	.	.	.
.	.	.	16dd\JJ	.	.	.	.	.	.	.	.	.	.	.	.	.	.
4r	.	.	(16cc#\LL	.	4r	.	4r	.	.	.	.	.	.	.	.	.	.
.	.	.	16b\	.	.	.	.	.	.	.	.	.	.	.	.	.	.
.	.	.	16a\	.	.	.	.	.	.	.	.	.	.	.	.	.	.
.	.	.	16g\JJ)	.	.	.	.	.	.	.	.	.	.	.	.	.	.
4A\	.	.	(16f#\LL	.	4d/	.	4f#/	.	.	.	.	.	.	.	.	.	.
.	.	.	16a\	.	.	.	.	.	.	.	.	.	.	.	.	.	.
.	.	.	16dd\	.	.	.	.	.	.	.	.	.	.	.	.	.	.
.	.	.	16a\JJ)	.	.	.	.	.	.	.	.	.	.	.	.	.	.
4A\	.	.	(16g\LL	.	4d/	.	4f#/	.	.	.	.	.	.	.	.	.	.
.	.	.	16f#\	.	.	.	.	.	.	.	.	.	.	.	.	.	.
.	.	.	16e\	.	.	.	.	.	.	.	.	.	.	.	.	.	.
.	.	.	16d\JJ)	.	.	.	.	.	.	.	.	.	.	.	.	.	.
=36	=36	=36	=36	=36	=36	=36	=36	=36	=36	=36	=36	=36	=36	=36	=36	=36	=36
*	*	*	*	*	*	*	*^	*	*	*	*	*	*	*	*	*	*
4A\	4	.	2A/	.	4d/	.	4f#/	4ryy	.	1ryy	1ryy	00r	.	1ryy	1ryy	1ryy	1ryy	1ryy
4A\	.	.	.	.	4d/	.	4f#/	4ryy	.	.	.	.	.	.	.	.	.	.
4AA/	3	.	2ee\	.	4e/	.	4cc#X/	4g#X\	.	.	.	.	.	.	.	.	.	.
4AA/	.	.	.	.	4e/	.	4cc#/	4g#\	.	.	.	.	.	.	.	.	.	.
*	*	*	*	*	*	*	*v	*v	*	*	*	*	*	*	*	*	*	*
=37	=37	=37	=37	=37	=37	=37	=37	=37	=37	=37	=37	=37	=37	=37	=37	=37	=37
!	!	!LO:DY:b:t=forte	!	!	!	!	!	!LO:DY:b:t=forte	!	!	!	!	!	!	!	!	!
4D\	.	f	8dd'\L	.	8d'/L	.	8ddL 8f#|>/	f	1ryy	1ryy	.	.	1ryy	1ryy	1ryy	1ryy	1ryy
!	!	!	!	!	!	!LO:DY:b:t=forte	!	!	!	!	!	!	!	!	!	!	!
.	.	.	8d'\	.	8f#'/	f	8dd|>/J	.	.	.	.	.	.	.	.	.	.
4F#\	.	.	8f#'\	.	8a'/	.	8ff#|>\L	.	.	.	.	.	.	.	.	.	.
.	.	.	8f#'\J	.	8a'/J	.	8ff#|>\	.	.	.	.	.	.	.	.	.	.
4A\	.	.	8e'\L	.	8g'/L	.	8ee|>\	.	.	.	.	.	.	.	.	.	.
.	.	.	8e'\	.	8g'/	.	8ee|>\	.	.	.	.	.	.	.	.	.	.
4AA/	.	.	8c#'\	.	8e'/	.	8dd|>\	.	.	.	.	.	.	.	.	.	.
.	.	.	8A'\J	.	8g'/J	.	8cc#|>\J	.	.	.	.	.	.	.	.	.	.
!LO:LB:g=original	!	!	!LO:LB:g=original	!	!	!	!LO:LB:g=original	!	!	!	!	!	!	!	!	!	!
=38	=38	=38	=38	=38	=38	=38	=38	=38	=38	=38	=38	=38	=38	=38	=38	=38	=38
4D\	.	.	8d'\L	.	8f#'/L	.	8dd|\L	.	1ryy	1ryy	.	.	1ryy	1ryy	1ryy	1ryy	1ryy
.	.	.	8d'\	.	8f#'/	.	8dd|\	.	.	.	.	.	.	.	.	.	.
4F#\	.	.	8a'\	.	8a'/	.	8aa|\	.	.	.	.	.	.	.	.	.	.
.	.	.	8f#'\J	.	8a'/J	.	8ff#|\J	.	.	.	.	.	.	.	.	.	.
4A\	.	.	8e'\L	.	8g'/L	.	8ee|\L	.	.	.	.	.	.	.	.	.	.
.	.	.	8e'\	.	8g'/	.	8ee|\	.	.	.	.	.	.	.	.	.	.
4AA/	.	.	8c#'\	.	8e'/	.	8cc#'\	.	.	.	.	.	.	.	.	.	.
.	.	.	8A'\J	.	8g'/J	.	8a'\J	.	.	.	.	.	.	.	.	.	.
=39	=39	=39	=39	=39	=39	=39	=39	=39	=39	=39	=39	=39	=39	=39	=39	=39	=39
4D\	.	.	8d'\L	.	8f#'/L	.	8dd'\L	.	1ryy	1ryy	.	.	1ryy	1ryy	1ryy	1ryy	1ryy
.	.	.	8d'\	.	8f#'/	.	8dd'\	.	.	.	.	.	.	.	.	.	.
4F#\	.	.	8f#'\	.	8a'/	.	8ff#'\	.	.	.	.	.	.	.	.	.	.
.	.	.	8f#'\J	.	8a'/J	.	8ff#'\J	.	.	.	.	.	.	.	.	.	.
4A\	.	.	8e'\L	.	8g'/L	.	8ee'\L	.	.	.	.	.	.	.	.	.	.
.	.	.	8e'\	.	8g'/	.	8ee'\	.	.	.	.	.	.	.	.	.	.
4AA/	.	.	8c#'\	.	8e'/	.	8cc#'\	.	.	.	.	.	.	.	.	.	.
.	.	.	8A'\J	.	8g'/J	.	8a'\J	.	.	.	.	.	.	.	.	.	.
=40	=40	=40	=40	=40	=40	=40	=40	=40	=40	=40	=40	=40	=40	=40	=40	=40	=40
4D\	.	.	4d\	.	4f#/	.	4dd\	.	1ryy	1ryy	2r	.	1ryy	1ryy	1ryy	1ryy	1ryy
!	!	!	!	!	!LO:TUP:b:problem:klamra łukowa	!	!LO:TUP:a:problem:klamra łukowa	!	!	!	!	!	!	!	!	!	!
4DD/	.	.	4dd\	.	12a/L	.	12ff#\L	.	.	.	.	.	.	.	.	.	.
.	.	.	.	.	12b/	.	12gg\	.	.	.	.	.	.	.	.	.	.
.	.	.	.	.	12a/J	.	12ff#\J	.	.	.	.	.	.	.	.	.	.
4D\	.	.	4d\	.	4f#/	.	4dd\	.	.	.	4r	.	.	.	.	.	.
4r	.	.	8r	.	4r	.	4r	.	.	.	8r	.	.	.	.	.	.
!	!	!	!	!LO:DY:b:t=piano	!	!	!	!	!	!	!	!	!	!	!	!	!
.	.	.	(32f#\LLL	p	.	.	.	.	.	.	(32f#\LLL	Ma-	.	.	.	.	.
.	.	.	32a\	.	.	.	.	.	.	.	32a\	.	.	.	.	.	.
.	.	.	32g\	.	.	.	.	.	.	.	32g\	.	.	.	.	.	.
!	!	!	!	!	!	!	!LO:TX:t=P:problem:skreślony takt	!	!	!	!	!	!	!	!	!	!
.	.	.	32b\JJJ)	.	.	.	.	.	.	.	32b\JJJ)	.	.	.	.	.	.
!	!	!	!	!	!LO:LB:g=original	!	!	!	!	!	!	!	!	!	!	!	!
=41	=41	=41	=41	=41	=41	=41	=41	=41	=41	=41	=41	=41	=41	=41	=41	=41	=41
!	!	!LO:DY:b:t=piano	!LO:TX:b:t=Vox	!	!	!	!	!	!	!	!	!	!	!	!	!	!
4r	.	p	8a\L	.	4r	.	4r	.	1ryy	1ryy	8a\L	-ter	1ryy	1ryy	1ryy	1ryy	1ryy
.	.	.	8f#\J	.	.	.	.	.	.	.	8f#\J	.	.	.	.	.	.
!	!	!	!	!	!	!	!LO:TX:b:t=vox	!LO:DY:b:t=piano	!	!	!	!	!	!	!	!	!
4D\	.	.	2d\	.	4f#'/	.	4a/	p	.	.	4d\	.	.	.	.	.	.
4D\	.	.	.	.	4f#'/	.	4a/	.	.	.	4r	.	.	.	.	.	.
!LO:TX:b:t=vox	!	!	!	!	!	!	!	!	!	!	!	!	!	!	!	!	!
4D\	.	.	8a\L	.	4f#'/	.	4a/	.	.	.	8a\	Ma-	.	.	.	.	.
.	.	.	8dd\J	.	.	.	.	.	.	.	8dd\	-ter	.	.	.	.	.
=42	=42	=42	=42	=42	=42	=42	=42	=42	=42	=42	=42	=42	=42	=42	=42	=42	=42
4r	.	.	(8.dd\L	.	4r	.	4r	.	1ryy	1ryy	8.ddT\L	Chri-	1ryy	1ryy	1ryy	1ryy	1ryy
.	.	.	32cc#\LL	.	.	.	.	.	.	.	32cc#\LL	.	.	.	.	.	.
.	.	.	32dd\JJJ)	.	.	.	.	.	.	.	32dd\JJJ	.	.	.	.	.	.
4E\	.	.	4cc#\	.	4g'/	.	4a/	.	.	.	4cc#\	-sti	.	.	.	.	.
4E\	.	.	4r	.	4g'/	.	4a/	.	.	.	4r	.	.	.	.	.	.
4E\	.	.	8r	.	4g'/	.	4a/	.	.	.	8r	.	.	.	.	.	.
*	*	*	*	*	*	*	*	*	*	*	*rscale:2	*	*	*	*	*	*
.	.	.	(32c#\LLL	.	.	.	.	.	.	.	(32c#\LLL	Ma-	.	.	.	.	.
.	.	.	32e\)	.	.	.	.	.	.	.	32e\)	.	.	.	.	.	.
.	.	.	(32d\	.	.	.	.	.	.	.	(32d\	.	.	.	.	.	.
.	.	.	32f#\JJJ)	.	.	.	.	.	.	.	32f#\JJJ)	.	.	.	.	.	.
*	*	*	*	*	*	*	*	*	*	*	*rscale:1	*	*	*	*	*	*
!	!	!	!LO:LB:g=original	!	!	!	!	!	!	!	!LO:LB:g=original	!	!	!	!	!	!
=43	=43	=43	=43	=43	=43	=43	=43	=43	=43	=43	=43	=43	=43	=43	=43	=43	=43
*	*	*	*	*	*	*	*^	*	*	*	*	*	*	*	*	*	*
4r	.	.	8e\L	.	4r	.	4r	4ryy	.	1ryy	1ryy	8e\L	-ter	1ryy	1ryy	1ryy	1ryy	1ryy
.	.	.	8c#\J	.	.	.	.	.	.	.	.	8c#\J	.	.	.	.	.	.
4C#/	.	.	2A/	.	4e'/	.	4a/	4f#\	.	.	.	4A/	.	.	.	.	.	.
4C#/	.	.	.	.	4e'/	.	4a/	4f#\	.	.	.	8r	.	.	.	.	.	.
.	.	.	.	.	.	.	.	.	.	.	.	8A/	Di-	.	.	.	.	.
4C#/	.	.	8ee\L	.	4e'/	.	4a/	4f#\	.	.	.	8e\	-vi-	.	.	.	.	.
.	.	.	8g\J	.	.	.	.	.	.	.	.	8g\	-ne	.	.	.	.	.
*	*	*	*	*	*	*	*v	*v	*	*	*	*	*	*	*	*	*	*
=44	=44	=44	=44	=44	=44	=44	=44	=44	=44	=44	=44	=44	=44	=44	=44	=44	=44
4r	.	.	8.g\L	.	4r	.	4r	.	1ryy	1ryy	8.gT\	gra-	1ryy	1ryy	1ryy	1ryy	1ryy
.	.	.	32f#\LL	.	.	.	.	.	.	.	32f#\LLL	-ti-	.	.	.	.	.
.	.	.	32g\JJJ	.	.	.	.	.	.	.	32g\JJJ	.	.	.	.	.	.
4D\	.	.	4f#\	.	4f#'/	.	4a/	.	.	.	4f#\	-ae	.	.	.	.	.
4D\	.	.	4r	.	4f#'/	.	4a/	.	.	.	4r	.	.	.	.	.	.
4D\	.	.	8r	.	4f#'/	.	4a/	.	.	.	8r	.	.	.	.	.	.
.	.	.	(32cc#\LLL	.	.	.	.	.	.	.	32cc#\LLL	o-	.	.	.	.	.
.	.	.	32dd\)	.	.	.	.	.	.	.	(32dd\	.	.	.	.	.	.
.	.	.	(32cc#\	.	.	.	.	.	.	.	32cc#\)	.	.	.	.	.	.
.	.	.	32dd\JJJ)	.	.	.	.	.	.	.	32dd\JJJ	.	.	.	.	.	.
=45	=45	=45	=45	=45	=45	=45	=45	=45	=45	=45	=45	=45	=45	=45	=45	=45	=45
4r	.	.	4.b\	.	4r	.	4.g/	.	1ryy	1ryy	4.b\	-ra	1ryy	1ryy	1ryy	1ryy	1ryy
4G\	.	.	.	.	4b'\	.	.	.	.	.	.	.	.	.	.	.	.
.	.	.	8ee\	.	.	.	8g/	.	.	.	8ee\	pro	.	.	.	.	.
4A\	.	.	8.ff#\L	.	4a'/	.	(8a/L	.	.	.	8.ff#\L	no-	.	.	.	.	.
.	.	.	.	.	.	.	8g/	.	.	.	.	.	.	.	.	.	.
.	.	.	16ee\K	.	.	.	.	.	.	.	16ee\K	.	.	.	.	.	.
4AA/	.	.	8.dd\	.	4a'/	.	8f#/	.	.	.	8.dd\	.	.	.	.	.	.
.	.	.	.	.	.	.	8e/J)	.	.	.	.	.	.	.	.	.	.
.	.	.	16cc#\Jk	.	.	.	.	.	.	.	16cc#\Jk	.	.	.	.	.	.
!	!	!	!	!	!	!	!LO:LB:g=original	!	!	!	!	!	!	!	!	!	!
=46	=46	=46	=46	=46	=46	=46	=46	=46	=46	=46	=46	=46	=46	=46	=46	=46	=46
*	*	*	*	*	*	*	*	*	*	*	*2\right	*	*	*	*	*	*
!	!	!	!	!	!	!LO:DY:b:t=for&colon;	!	!LO:DY:b:t=for	!	!	!	!	!	!	!	!	!
4D\	.	.	4dd\	.	4a/	f	4f#/	f	1ryy	1ryy	2dd\	-bis	1ryy	1ryy	1ryy	1ryy	1ryy
4DD/	.	.	(16dd\LL	.	4f#/	.	4a|/	.	.	.	.	.	.	.	.	.	.
.	.	.	16dd\	.	.	.	.	.	.	.	.	.	.	.	.	.	.
.	.	.	16dd\)	.	.	.	.	.	.	.	.	.	.	.	.	.	.
.	.	.	16ee\JJ	.	.	.	.	.	.	.	.	.	.	.	.	.	.
4D\	.	.	4dd\	.	4f#/	.	4a|/	.	.	.	2r	.	.	.	.	.	.
4r	.	.	4a\	.	4r	.	4r	.	.	.	.	.	.	.	.	.	.
!	!	!	!LO:LB:g=original	!	!	!	!	!	!	!	!	!	!	!	!	!	!
=47	=47	=47	=47	=47	=47	=47	=47	=47	=47	=47	=47	=47	=47	=47	=47	=47	=47
*	*	*	*clefG2	*	*	*	*	*	*	*	*	*	*	*	*	*	*
!	!	!	!LO:TX:a:t=Violino	!	!	!	!	!LO:DY:b:t=piano	!	!	!	!	!	!	!	!	!
4r	.	.	2ff# 2a 2d/	.	4r	.	4r	p	1ryy	1ryy	2f#\	Ma-	1ryy	1ryy	1ryy	1ryy	1ryy
!	!	!	!	!	!	!LO:DY:b:t=piano	!	!	!	!	!	!	!	!	!	!	!
4D\	.	.	.	.	4f#'/	p	4a'/	.	.	.	.	.	.	.	.	.	.
!	!	!	!LO:TUP:b:problem:klamra łukowa	!	!	!	!	!	!	!	!	!	!	!	!	!	!
4D\	.	.	12d/L	.	4f#'/	.	4a'/	.	.	.	4d\	-ter	.	.	.	.	.
.	.	.	12f#/	.	.	.	.	.	.	.	.	.	.	.	.	.	.
.	.	.	12a/J	.	.	.	.	.	.	.	.	.	.	.	.	.	.
!	!	!	!LO:TUP:a:problem:klamra łukowa	!	!	!	!	!	!	!	!	!	!	!	!	!	!
4D\	.	.	12dd\L	.	4f#'/	.	4a'/	.	.	.	4f#\	pu-	.	.	.	.	.
.	.	.	12ff#\	.	.	.	.	.	.	.	.	.	.	.	.	.	.
.	.	.	12aa\J	.	.	.	.	.	.	.	.	.	.	.	.	.	.
=48	=48	=48	=48	=48	=48	=48	=48	=48	=48	=48	=48	=48	=48	=48	=48	=48	=48
4r	.	.	8ff#\L	.	4r	.	4r	.	1ryy	1ryy	8f#\	-riſ-	1ryy	1ryy	1ryy	1ryy	1ryy
.	.	.	8ee\J	.	.	.	.	.	.	.	8e\	-ſi-	.	.	.	.	.
4C#/	.	.	4ee\	.	4e'/	.	4a'/	.	.	.	4e\	-ma	.	.	.	.	.
!	!	!	!LO:TX:b:i:t=Verte Cito Solo	!	!	!	!	!	!	!	!	!	!	!	!	!	!
4C#/	.	.	2r	.	4e'/	.	4a'/	.	.	.	2r	.	.	.	.	.	.
!LO:TX:b:i:t=Verte	!	!	!	!	!	!	!	!	!	!	!	!	!	!	!	!	!
4C#/	.	.	.	.	4e'/	.	4a'/	.	.	.	.	.	.	.	.	.	.
!LO:PB:g=original	!	!	!LO:PB:g=original	!	!	!	!	!	!	!	!LO:LB:g=original	!	!	!	!	!	!
=49	=49	=49	=49	=49	=49	=49	=49	=49	=49	=49	=49	=49	=49	=49	=49	=49	=49
!	!	!	!LO:TUP:a:problem:klamra łukowa	!	!	!	!	!	!	!	!LO:TUP:a:problem:klamra łukowa	!	!	!	!	!	!
4r	.	.	12dd\L	.	4r	.	4r	.	1ryy	1ryy	12dd\L	Ma-	1ryy	1ryy	1ryy	1ryy	1ryy
.	.	.	12cc#\	.	.	.	.	.	.	.	12cc#\	.	.	.	.	.	.
.	.	.	12b\J	.	.	.	.	.	.	.	12b\J	.	.	.	.	.	.
!	!	!	!LO:TUP:b:problem:klamra łukowa	!	!	!	!	!	!	!	!LO:TUP:a:problem:klamra łukowa	!	!	!	!	!	!
4E\	#	.	12a/L	.	4g#X'/	.	4b'\	.	.	.	12a\L	-ter	.	.	.	.	.
.	.	.	12g#X/	.	.	.	.	.	.	.	12g#X\	.	.	.	.	.	.
.	.	.	12f#/J	.	.	.	.	.	.	.	12f#\J	.	.	.	.	.	.
4E\	.	.	8e/L	.	4g#'/	.	4b'\	.	.	.	8e\L	Caſ-	.	.	.	.	.
.	.	.	8g#/	.	.	.	.	.	.	.	8g#X\J	.	.	.	.	.	.
4E\	.	.	8b/	.	4g#'/	.	4b'\	.	.	.	8b\L	.	.	.	.	.	.
.	.	.	8dd/J	.	.	.	.	.	.	.	8dd\J	.	.	.	.	.	.
!	!	!	!	!	!LO:LB:g=original	!	!	!	!	!	!	!	!	!	!	!	!
=50	=50	=50	=50	=50	=50	=50	=50	=50	=50	=50	=50	=50	=50	=50	=50	=50	=50
4r	.	.	8.dd\L	.	4r	.	4r	.	1ryy	1ryy	8.dd\	-tiſ-	1ryy	1ryy	1ryy	1ryy	1ryy
.	.	.	16cc#\Jk	.	.	.	.	.	.	.	16cc#\	-si-	.	.	.	.	.
4AA/	.	.	4cc#\	.	4e/	.	4cc#'\	.	.	.	4cc#\	-ma	.	.	.	.	.
4AA/	.	.	4r	.	4e/	.	4cc#'\	.	.	.	4r	.	.	.	.	.	.
4AA/	.	.	4cc#\	.	4e/	.	4cc#'\	.	.	.	4cc#\	o-	.	.	.	.	.
=51	=51	=51	=51	=51	=51	=51	=51	=51	=51	=51	=51	=51	=51	=51	=51	=51	=51
4r	.	.	4b\	.	4r	.	4d/	.	1ryy	1ryy	2b\	-ra	1ryy	1ryy	1ryy	1ryy	1ryy
4D\	.	.	(16b\LL	.	4f#/	.	(16d/LL	.	.	.	.	.	.	.	.	.	.
.	.	.	16cc#\)	.	.	.	16e/)	.	.	.	.	.	.	.	.	.	.
.	.	.	(16b\	.	.	.	(16d/	.	.	.	.	.	.	.	.	.	.
.	.	.	16cc#\JJ)	.	.	.	16e/JJ)	.	.	.	.	.	.	.	.	.	.
4D\	.	.	8dd\L	.	4f#/	.	(8f#/L	.	.	.	8dd\L	o-	.	.	.	.	.
.	.	.	8cc#\J	.	.	.	8e/	.	.	.	8cc#\J	.	.	.	.	.	.
4D\	.	.	8b/L	.	4f#/	.	8d/	.	.	.	8b\	-ra	.	.	.	.	.
.	.	.	8a/J	.	.	.	8c#/J)	.	.	.	8a\	pro	.	.	.	.	.
=52	=52	=52	=52	=52	=52	=52	=52	=52	=52	=52	=52	=52	=52	=52	=52	=52	=52
!	!	!LO:DY:b:t=for	!	!	!	!	!	!	!	!	!	!	!	!	!	!	!
4.E\	.	f	4a/	.	4e/	.	4c#/	.	1ryy	1ryy	4a\	no-	1ryy	1ryy	1ryy	1ryy	1ryy
.	.	.	4g#X/	.	8e/L	.	4B/	.	.	.	4g#X\	-bis	.	.	.	.	.
!	!	!	!	!	!	!LO:DY:b:t=for	!	!	!	!	!	!	!	!	!	!	!
8E'\	.	.	.	.	8e/J	f	.	.	.	.	.	.	.	.	.	.	.
8BB'/L	.	.	2r	.	8B'/L	.	2r	.	.	.	2r	.	.	.	.	.	.
8GG#X'/	.	.	.	.	8G#X'/	.	.	.	.	.	.	.	.	.	.	.	.
8BB'/	.	.	.	.	8B'/	.	.	.	.	.	.	.	.	.	.	.	.
8E'/J	.	.	.	.	8e'/J	.	.	.	.	.	.	.	.	.	.	.	.
!	!	!	!LO:LB:g=original	!	!	!	!LO:LB:g=original	!	!	!	!	!	!	!	!	!	!
=53	=53	=53	=53	=53	=53	=53	=53	=53	=53	=53	=53	=53	=53	=53	=53	=53	=53
!	!	!	!	!	!	!	!LO:TX:b:i:t=dolce	!	!	!	!	!	!	!	!	!	!
4E\	.	.	8r	.	4b\	.	4dd\	.	1ryy	1ryy	4e\	Ma-	1ryy	1ryy	1ryy	1ryy	1ryy
.	.	.	8ee\	.	.	.	.	.	.	.	.	.	.	.	.	.	.
!	!	!	!LO:TX:b:i:t=pizzicato	!	!LO:TX:b:i:t=dolce	!	!	!	!	!	!	!	!	!	!	!	!
4r	.	.	8r	.	4a\	.	4cc#\	.	.	.	8e\	-te(r)	.	.	.	.	.
.	.	.	8ee\	.	.	.	.	.	.	.	8e\	in-	.	.	.	.	.
4E\	.	.	8r	.	4g#X\	.	4b\	.	.	.	4e\	-vi-	.	.	.	.	.
.	.	.	8ee\	.	.	.	.	.	.	.	.	.	.	.	.	.	.
4G#X\	.	.	8r	.	4b\	.	4dd\	.	.	.	4dd\	-o-	.	.	.	.	.
.	.	.	8ee\	.	.	.	.	.	.	.	.	.	.	.	.	.	.
!	!	!	!	!	!	!	!	!	!	!	!LO:LB:g=original	!	!	!	!	!	!
=54	=54	=54	=54	=54	=54	=54	=54	=54	=54	=54	=54	=54	=54	=54	=54	=54	=54
!	!	!	!LO:TX:b:t=Colarco	!	!	!	!	!	!	!	!	!	!	!	!	!	!
4A\	.	.	(16cc#\LL	.	4a\	.	4cc#'\	.	1ryy	1ryy	4cc#\	-la-	1ryy	1ryy	1ryy	1ryy	1ryy
.	.	.	16ee\	.	.	.	.	.	.	.	.	.	.	.	.	.	.
.	.	.	16dd#X\	.	.	.	.	.	.	.	.	.	.	.	.	.	.
.	.	.	16ee\JJ)	.	.	.	.	.	.	.	.	.	.	.	.	.	.
4AA/	.	.	(16ff#\LL	.	4cc#\	.	4ee'\	.	.	.	4ee\	-ta	.	.	.	.	.
.	.	.	16ee\	.	.	.	.	.	.	.	.	.	.	.	.	.	.
.	.	.	16dd#X\	.	.	.	.	.	.	.	.	.	.	.	.	.	.
.	.	.	16ee\JJ)	.	.	.	.	.	.	.	.	.	.	.	.	.	.
2r	.	.	(16ddn\LL	.	2r	.	2r	.	.	.	2r	.	.	.	.	.	.
.	.	.	16cc#\	.	.	.	.	.	.	.	.	.	.	.	.	.	.
.	.	.	16b\	.	.	.	.	.	.	.	.	.	.	.	.	.	.
.	.	.	16a\JJ)	.	.	.	.	.	.	.	.	.	.	.	.	.	.
.	.	.	(16g#X/LL	.	.	.	.	.	.	.	.	.	.	.	.	.	.
.	.	.	16a/	.	.	.	.	.	.	.	.	.	.	.	.	.	.
.	.	.	16b/	.	.	.	.	.	.	.	.	.	.	.	.	.	.
.	.	.	16a/JJ)	.	.	.	.	.	.	.	.	.	.	.	.	.	.
=55	=55	=55	=55	=55	=55	=55	=55	=55	=55	=55	=55	=55	=55	=55	=55	=55	=55
!	!	!	!LO:TX:b:i:t=pizzi&colon;	!	!	!	!LO:TX:b:i:t=dolce	!	!	!	!	!	!	!	!	!	!
4E\	.	.	8r	.	4b\	.	(4dd\	.	1ryy	1ryy	4e\	Ma-	1ryy	1ryy	1ryy	1ryy	1ryy
.	.	.	8ee\	.	.	.	.	.	.	.	.	.	.	.	.	.	.
4r	.	.	8r	.	(4a\	.	4cc#\	.	.	.	8e\	-ter	.	.	.	.	.
.	.	.	8ee\	.	.	.	.	.	.	.	8e\	in-	.	.	.	.	.
!	!	!	!LO:LB:g=original	!	!LO:TX:b:i:t=dolce	!	!	!	!	!	!	!	!	!	!	!	!
4E\	.	.	8r	.	4g#X\)	.	4b\	.	.	.	4e\	-te-	.	.	.	.	.
.	.	.	8ee\	.	.	.	.	.	.	.	.	.	.	.	.	.	.
4G#X\	.	.	8r	.	4b\	.	4dd\)	.	.	.	4dd\	-me-	.	.	.	.	.
.	.	.	8ee\	.	.	.	.	.	.	.	.	.	.	.	.	.	.
=56	=56	=56	=56	=56	=56	=56	=56	=56	=56	=56	=56	=56	=56	=56	=56	=56	=56
!	!	!	!LO:TX:b:t=colar&colon;	!	!	!	!	!	!	!	!	!	!	!	!	!	!
4A\	.	.	(16cc#\LL	.	(4a\	.	(4cc#\	.	1ryy	1ryy	4cc#\	-ra-	1ryy	1ryy	1ryy	1ryy	1ryy
.	.	.	16dd\	.	.	.	.	.	.	.	.	.	.	.	.	.	.
.	.	.	16cc#\	.	.	.	.	.	.	.	.	.	.	.	.	.	.
.	.	.	16b\JJ)	.	.	.	.	.	.	.	.	.	.	.	.	.	.
4AA/	.	.	(16a/LL	.	4cc#\)	.	4ee\)	.	.	.	4ee\	-ta	.	.	.	.	.
.	.	.	16g#X/	.	.	.	.	.	.	.	.	.	.	.	.	.	.
.	.	.	16a/	.	.	.	.	.	.	.	.	.	.	.	.	.	.
.	.	.	16b/JJ)	.	.	.	.	.	.	.	.	.	.	.	.	.	.
2r	.	.	(16cc#\LL	.	2r	.	2r	.	.	.	4r	.	.	.	.	.	.
.	.	.	16b\	.	.	.	.	.	.	.	.	.	.	.	.	.	.
.	.	.	16cc#\	.	.	.	.	.	.	.	.	.	.	.	.	.	.
.	.	.	16dd\JJ)	.	.	.	.	.	.	.	.	.	.	.	.	.	.
.	.	.	8ee\L	.	.	.	.	.	.	.	8ee\L	Ma-	.	.	.	.	.
.	.	.	8cc#\J	.	.	.	.	.	.	.	(8cc#\J	.	.	.	.	.	.
*	*	*	*clefC3	*	*	*	*	*	*	*	*	*	*	*	*	*	*
!LO:LB:g=original	!	!	!	!	!	!	!	!	!	!	!	!	!	!	!	!	!
=57	=57	=57	=57	=57	=57	=57	=57	=57	=57	=57	=57	=57	=57	=57	=57	=57	=57
*	*	*	*k[f#c#]	*	*	*	*	*	*	*	*	*	*	*	*	*	*
.	.	.	8qqb/	.	.	.	.	.	.	.	.	.	.	.	.	.	.
4r	.	.	4a\	.	4r	.	4r	.	1ryy	1ryy	4a\)	.	1ryy	1ryy	1ryy	1ryy	1ryy
4C#/	6 3	.	4.a\	.	4e'/	.	4a'/	.	.	.	4.a\	-ter	.	.	.	.	.
4C#/	.	.	.	.	4e'/	.	4a'/	.	.	.	.	.	.	.	.	.	.
.	.	.	8b\	.	.	.	.	.	.	.	8b\	.	.	.	.	.	.
4C#/	.	.	8e\L	.	4e'/	.	4a'/	.	.	.	(8e\L	a-	.	.	.	.	.
.	.	.	8gn\J	.	.	.	.	.	.	.	8g\J)	.	.	.	.	.	.
!	!	!	!LO:LB:g=original	!	!	!	!	!	!	!	!	!	!	!	!	!	!
=58	=58	=58	=58	=58	=58	=58	=58	=58	=58	=58	=58	=58	=58	=58	=58	=58	=58
.	.	.	.	.	.	.	.	.	.	.	8qqa/	.	.	.	.	.	.
4r	.	.	8.gT\L	.	4r	.	4r	.	1ryy	1ryy	8g\	-ma-	1ryy	1ryy	1ryy	1ryy	1ryy
.	.	.	.	.	.	.	.	.	.	.	(16f#\LL	-bi-	.	.	.	.	.
.	.	.	(32f#\LL	.	.	.	.	.	.	.	16g\JJ)	.	.	.	.	.	.
.	.	.	32g\JJJ)	.	.	.	.	.	.	.	.	.	.	.	.	.	.
4D\	3	.	4f#\	.	4f#'/	.	4a'/	.	.	.	4f#\	-lis	.	.	.	.	.
4D\	.	.	4r	.	4f#'/	.	4a'/	.	.	.	4r	.	.	.	.	.	.
4D\	.	.	8b\L	.	4f#'/	.	4b'/	.	.	.	8b\L	Ma-	.	.	.	.	.
!	!	!	!	!	!	!	!	!	!	!	!LO:TX:b:i:t=Verte	!	!	!	!	!	!
.	.	.	8cc#\J	.	.	.	.	.	.	.	(8cc#\J	.	.	.	.	.	.
!	!	!	!	!	!LO:LB:g=original	!	!	!	!	!	!LO:PB:g=original	!	!	!	!	!	!
=59	=59	=59	=59	=59	=59	=59	=59	=59	=59	=59	=59	=59	=59	=59	=59	=59	=59
4r	.	.	2dd\	.	4r	.	4r	.	1ryy	1ryy	2dd\)	-Mater	1ryy	1ryy	1ryy	1ryy	1ryy
4D\	6 3	.	.	.	4f#/|	.	4b'\	.	.	.	.	.	.	.	.	.	.
4D\	.	.	8b\	.	4f#/|	.	4b'\	.	.	.	12b\L	ad-	.	.	.	.	.
.	.	.	.	.	.	.	.	.	.	.	12cc#\	.	.	.	.	.	.
.	.	.	8r	.	.	.	.	.	.	.	.	.	.	.	.	.	.
.	.	.	.	.	.	.	.	.	.	.	12b\J	.	.	.	.	.	.
4D\	.	.	8g#X\	.	4f#/|	.	4b'\	.	.	.	12g#X\L	-mi-	.	.	.	.	.
.	.	.	.	.	.	.	.	.	.	.	12a\	.	.	.	.	.	.
.	.	.	8r	.	.	.	.	.	.	.	.	.	.	.	.	.	.
.	.	.	.	.	.	.	.	.	.	.	12g#\J	.	.	.	.	.	.
=60	=60	=60	=60	=60	=60	=60	=60	=60	=60	=60	=60	=60	=60	=60	=60	=60	=60
4r	.	.	(16e\LL	.	4r	.	4r	.	1ryy	1ryy	(16e\LL	-ra-	1ryy	1ryy	1ryy	1ryy	1ryy
.	.	.	16f#\	.	.	.	.	.	.	.	16f#\JJ)	.	.	.	.	.	.
.	.	.	16e\	.	.	.	.	.	.	.	(16e\LL	-bi-	.	.	.	.	.
.	.	.	16d#X\JJ)	.	.	.	.	.	.	.	16d#X\JJ)	.	.	.	.	.	.
4C#\	7 5	.	4e\	.	4g#X/|	.	4b'\	.	.	.	4e\	-lis	.	.	.	.	.
4C#\	.	.	4r	.	4g#/|	.	4b'\	.	.	.	4r	.	.	.	.	.	.
4C#\	.	.	8a\L	.	4g#/|	.	4b'\	.	.	.	8a\L	Ma-	.	.	.	.	.
.	.	.	8b\J	.	.	.	.	.	.	.	8b\J	.	.	.	.	.	.
=61	=61	=61	=61	=61	=61	=61	=61	=61	=61	=61	=61	=61	=61	=61	=61	=61	=61
4r	.	.	2cc#\	.	4r	.	4r	.	1ryy	1ryy	2cc#\	-ter	1ryy	1ryy	1ryy	1ryy	1ryy
4C#\	.	.	.	.	4f#'/	.	4a'/	.	.	.	.	.	.	.	.	.	.
!	!	!	!LO:LB:g=original	!	!	!	!	!	!	!	!	!	!	!	!	!	!
*	*	*	*	*	*	*	*	*	*	*	*Xtuplet	*	*	*	*	*	*
4C#\	6 4	.	8a\	.	4f#'/	.	4a'/	.	.	.	12a\L	Cre-	.	.	.	.	.
.	.	.	.	.	.	.	.	.	.	.	12b\	.	.	.	.	.	.
.	.	.	8r	.	.	.	.	.	.	.	.	.	.	.	.	.	.
.	.	.	.	.	.	.	.	.	.	.	12a\J	.	.	.	.	.	.
4C#\	.	.	8f#\	.	4f#'/	.	4a'/	.	.	.	12f#\L	-a-	.	.	.	.	.
.	.	.	.	.	.	.	.	.	.	.	12g#X\	.	.	.	.	.	.
.	.	.	8r	.	.	.	.	.	.	.	.	.	.	.	.	.	.
.	.	.	.	.	.	.	.	.	.	.	12f#\J	.	.	.	.	.	.
=62	=62	=62	=62	=62	=62	=62	=62	=62	=62	=62	=62	=62	=62	=62	=62	=62	=62
!	!	!	!	!	!	!	!LO:TX:t=P:problem:takt zapisany repetycją	!	!	!	!	!	!	!	!	!	!
4r	.	.	16dn\LL	.	4r	.	4ryy	.	1ryy	1ryy	16dn\LL	-to-	1ryy	1ryy	1ryy	1ryy	1ryy
.	.	.	16e\	.	.	.	.	.	.	.	(16e\	.	.	.	.	.	.
.	.	.	16d\	.	.	.	.	.	.	.	16d\)	.	.	.	.	.	.
.	.	.	16c#\JJ	.	.	.	.	.	.	.	16c#\JJ	.	.	.	.	.	.
4BB/	7 5	.	4d\	.	4f#'/	.	4a'/yy	.	.	.	4d\	-ris	.	.	.	.	.
4BB/	.	.	4r	.	4f#'/	.	4a'/yy	.	.	.	4r	.	.	.	.	.	.
4BB/	.	.	(8g#X\L	.	4f#'/	.	4a'/yy	.	.	.	8g#X\	Ma-	.	.	.	.	.
.	.	.	8a\J)	.	.	.	.	.	.	.	8a\	-ter	.	.	.	.	.
!	!	!	!	!	!	!	!LO:LB:g=original	!	!	!	!	!	!	!	!	!	!
=63	=63	=63	=63	=63	=63	=63	=63	=63	=63	=63	=63	=63	=63	=63	=63	=63	=63
!	!	!	!	!	!	!	!LO:TX:t=P:problem:brak taktu	!	!	!	!	!	!	!	!	!	!
4r	.	.	4.b\	.	4r	.	1ryy	.	1ryy	1ryy	4.b\	ſal-	1ryy	1ryy	1ryy	1ryy	1ryy
4BB/	6 4	.	.	.	4e'/	.	.	.	.	.	.	.	.	.	.	.	.
.	.	.	8g\	.	.	.	.	.	.	.	8g\	-va-	.	.	.	.	.
4E\	.	.	8b\L	.	4e'/	.	.	.	.	.	8b\L	-to-	.	.	.	.	.
.	.	.	8g\	.	.	.	.	.	.	.	8g\J	.	.	.	.	.	.
4G#X\	.	.	8e\	.	4e'/	.	.	.	.	.	8e\L	-ris	.	.	.	.	.
.	.	.	8d\J	.	.	.	.	.	.	.	8d\J	.	.	.	.	.	.
!	!	!	!	!	!	!	!	!	!	!	!LO:LB:g=original	!	!	!	!	!	!
=64	=64	=64	=64	=64	=64	=64	=64	=64	=64	=64	=64	=64	=64	=64	=64	=64	=64
4A\	.	.	8c#\L	.	8e/	.	4r	.	1ryy	1ryy	8c#\L	o-	1ryy	1ryy	1ryy	1ryy	1ryy
.	.	.	8e\J	.	4e/	.	.	.	.	.	8e\J	.	.	.	.	.	.
4C#/	.	.	4.a\	.	.	.	4g#X'/	.	.	.	4.a\	-ra	.	.	.	.	.
.	.	.	.	.	4e/	.	.	.	.	.	.	.	.	.	.	.	.
4BB/	.	.	.	.	.	.	4g#'/	.	.	.	.	.	.	.	.	.	.
.	.	.	8g#X\	.	4e/	.	.	.	.	.	8g#X\	o-	.	.	.	.	.
4G#X\	.	.	(8b\L	.	.	.	4b'/	.	.	.	(8b\L	.	.	.	.	.	.
.	.	.	8dd\J)	.	8e/	.	.	.	.	.	8dd\J)	.	.	.	.	.	.
!	!	!	!LO:LB:g=original	!	!	!	!	!	!	!	!	!	!	!	!	!	!
=65	=65	=65	=65	=65	=65	=65	=65	=65	=65	=65	=65	=65	=65	=65	=65	=65	=65
4A\	.	.	(8cc#\L	.	8e/	.	4r	.	1ryy	1ryy	(8cc#\L	.	1ryy	1ryy	1ryy	1ryy	1ryy
.	.	.	8a\J)	.	4e/	.	.	.	.	.	8a\J)	.	.	.	.	.	.
4C#/	.	.	4.e\	.	.	.	4a/	.	.	.	4.e\	-ra	.	.	.	.	.
.	.	.	.	.	4e/	.	.	.	.	.	.	.	.	.	.	.	.
4BB/	.	.	.	.	.	.	4g#X/	.	.	.	.	.	.	.	.	.	.
.	.	.	8b\	.	4e/	.	.	.	.	.	8b\	o-	.	.	.	.	.
4G#X\	.	.	(8dd\L	.	.	.	(8dd\L	.	.	.	(8dd\L	.	.	.	.	.	.
.	.	.	8b\J)	.	8e/	.	8b\J)	.	.	.	8b\J)	.	.	.	.	.	.
!LO:LB:g=original	!	!	!	!	!	!	!	!	!	!	!	!	!	!	!	!	!
=66	=66	=66	=66	=66	=66	=66	=66	=66	=66	=66	=66	=66	=66	=66	=66	=66	=66
4A\	.	.	(8cc#\L	.	8e/	.	4r	.	1ryy	1ryy	(8cc#\L	.	1ryy	1ryy	1ryy	1ryy	1ryy
.	.	.	8a\J)	.	4e/	.	.	.	.	.	8a\J)	.	.	.	.	.	.
4C#/	.	.	4.e\	.	.	.	4a/	.	.	.	4.e\	-ra	.	.	.	.	.
.	.	.	.	.	4e/	.	.	.	.	.	.	.	.	.	.	.	.
4BB/	.	.	.	.	.	.	4g#X/	.	.	.	.	.	.	.	.	.	.
.	.	.	8b\	.	4e/	.	.	.	.	.	8b\	o-	.	.	.	.	.
4G#X\	.	.	4dd\	.	.	.	(8b\L	.	.	.	(8dd\L	.	.	.	.	.	.
.	.	.	.	.	8e/	.	8dd\J)	.	.	.	8b\J)	.	.	.	.	.	.
!	!	!	!	!	!LO:LB:g=original	!	!	!	!	!	!	!	!	!	!	!	!
=67	=67	=67	=67	=67	=67	=67	=67	=67	=67	=67	=67	=67	=67	=67	=67	=67	=67
4A\	.	.	4.cc#\	.	4e/	.	4a/	.	1ryy	1ryy	4.cc#\	-ra	1ryy	1ryy	1ryy	1ryy	1ryy
4r	.	.	.	.	4r	.	4r	.	.	.	.	.	.	.	.	.	.
.	.	.	8ee\	.	.	.	.	.	.	.	8ee\	o-	.	.	.	.	.
4C#/	.	.	8dd'\L	.	4r	.	(8f#/L	.	.	.	8dd'\L	-ra	.	.	.	.	.
.	.	.	8cc#'\	.	.	.	8e/	.	.	.	8cc#'\J	.	.	.	.	.	.
4D/	.	.	8b'\	.	4f#/	.	8d/	.	.	.	8b\L	pro	.	.	.	.	.
.	.	.	8a'\J	.	.	.	8c#/J)	.	.	.	8a\J	.	.	.	.	.	.
=68	=68	=68	=68	=68	=68	=68	=68	=68	=68	=68	=68	=68	=68	=68	=68	=68	=68
4E\	.	.	4aT\	.	4e/	.	4c#/	.	1ryy	1ryy	4aT\	no-	1ryy	1ryy	1ryy	1ryy	1ryy
.	.	.	.	.	.	.	.	.	.	.	8qqg#X/L	.	.	.	.	.	.
.	.	.	.	.	.	.	.	.	.	.	8qqa/J	.	.	.	.	.	.
4BB/	.	.	4g#X\	.	4e/	.	4B/	.	.	.	4g#y\	-bis	.	.	.	.	.
4EE/	.	.	2r	.	2r	.	2r	.	.	.	2r	.	.	.	.	.	.
4r	.	.	.	.	.	.	.	.	.	.	.	.	.	.	.	.	.
=69	=69	=69	=69	=69	=69	=69	=69	=69	=69	=69	=69	=69	=69	=69	=69	=69	=69
!	!	!	!	!LO:DY:b:rj:t=p&colon;	!	!	!LO:TX:b:t=dolce	!	!	!	!	!	!	!	!	!	!
4r	.	.	8e\L	p	(8b\L	.	(8dd\L	.	1ryy	1ryy	(8dd\L	Vir-	1ryy	1ryy	1ryy	1ryy	1ryy
.	.	.	8e\	.	8a\)	.	8cc#\)	.	.	.	8cc#\J)	.	.	.	.	.	.
!	!	!	!	!	!LO:TX:b:i:t=dolce	!	!	!	!	!	!	!	!	!	!	!	!
4E\	.	.	8e\	.	(8a\	.	(8cc#\	.	.	.	8cc#\L	-go	.	.	.	.	.
.	.	.	8e\J	.	8g#X\J)	.	8b\J)	.	.	.	8b\J	.	.	.	.	.	.
!	!	!	!LO:LB:g=original	!	!	!	!	!	!	!	!	!	!	!	!	!	!
*	*	*	*tremolo	*	*	*	*	*	*	*	*	*	*	*	*	*	*
4G#X\	.	.	8e\L	.	4g#/	.	4b\	.	.	.	4b\	pru-	.	.	.	.	.
.	.	.	8e\	.	.	.	.	.	.	.	.	.	.	.	.	.	.
4E\	.	.	8e\	.	(8a/L	.	(8cc#\L	.	.	.	8cc#\L	-den-	.	.	.	.	.
.	.	.	8e\J	.	8b/J)	.	8dd\J)	.	.	.	8dd\J	.	.	.	.	.	.
=70	=70	=70	=70	=70	=70	=70	=70	=70	=70	=70	=70	=70	=70	=70	=70	=70	=70
!	!	!	!	!	!	!	!	!	!	!	!LO:TX:t=P:problem:takt dopisany inną ręką	!	!	!	!	!	!
4A\	.	.	8e\L	.	(8cc#\L	.	(8ee\L	.	1ryy	1ryy	8ee\L	-tiſ-	1ryy	1ryy	1ryy	1ryy	1ryy
.	.	.	8e\	.	8b\)	.	8dd\)	.	.	.	8dd\J	.	.	.	.	.	.
4E\	.	.	8e\	.	(8b\	.	(8dd\	.	.	.	8dd\L	-si-	.	.	.	.	.
.	.	.	8e\J	.	8a\J)	.	8cc#\J)	.	.	.	8cc#\J	.	.	.	.	.	.
4C#/	.	.	8e\L	.	4a\	.	4cc#\	.	.	.	4cc#\	-ma	.	.	.	.	.
.	.	.	8e\	.	.	.	.	.	.	.	.	.	.	.	.	.	.
4AA/	.	.	8e\	.	4r	.	4r	.	.	.	4r	.	.	.	.	.	.
.	.	.	8e\J	.	.	.	.	.	.	.	.	.	.	.	.	.	.
!	!	!	!	!	!	!	!LO:LB:g=original	!	!	!	!LO:LB:g=original	!	!	!	!	!	!
=71	=71	=71	=71	=71	=71	=71	=71	=71	=71	=71	=71	=71	=71	=71	=71	=71	=71
4r	.	.	8e\L	.	(8d/L	.	8b/L	.	1ryy	1ryy	8b\L	vir-	1ryy	1ryy	1ryy	1ryy	1ryy
.	.	.	8e\	.	8c#/)	.	8a/	.	.	.	8a\J	.	.	.	.	.	.
4E\	.	.	8e\	.	(8c#/	.	(8a/	.	.	.	8a\L	-go	.	.	.	.	.
.	.	.	8e\J	.	8B/J)	.	8g#X/J)	.	.	.	8g#X\J	.	.	.	.	.	.
4G#X\	.	.	8e\L	.	4B/	.	4g#/	.	.	.	4g#\	ve-	.	.	.	.	.
.	.	.	8e\	.	.	.	.	.	.	.	.	.	.	.	.	.	.
4E\	.	.	8e\	.	8c#/L	.	(8a/L	.	.	.	8a\L	-ne-	.	.	.	.	.
.	.	.	8e\J	.	8d/J	.	8b/J)	.	.	.	8b\J	.	.	.	.	.	.
=72	=72	=72	=72	=72	=72	=72	=72	=72	=72	=72	=72	=72	=72	=72	=72	=72	=72
4A\	.	.	8e\L	.	(8e/L	.	(8cc#\L	.	1ryy	1ryy	8cc#\L	-ran-	1ryy	1ryy	1ryy	1ryy	1ryy
.	.	.	8e\	.	8d/)	.	8b\)	.	.	.	(8b\	.	.	.	.	.	.
4AA/	.	.	8e\	.	(8d/	.	(8b\	.	.	.	8b\)	.	.	.	.	.	.
.	.	.	8e\J	.	8c#/J)	.	8a\J)	.	.	.	8a\J	.	.	.	.	.	.
4C#/	.	.	8e\L	.	4c#/	.	4a/	.	.	.	4a\	-da	.	.	.	.	.
.	.	.	8e\	.	.	.	.	.	.	.	.	.	.	.	.	.	.
4AA/	.	.	8e\	.	4r	.	4r	.	.	.	4r	.	.	.	.	.	.
.	.	.	8e\J	.	.	.	.	.	.	.	.	.	.	.	.	.	.
=73	=73	=73	=73	=73	=73	=73	=73	=73	=73	=73	=73	=73	=73	=73	=73	=73	=73
4r	.	.	8e\L	.	(8b\L	.	(8dd\L	.	1ryy	1ryy	8dd\L	Vir-	1ryy	1ryy	1ryy	1ryy	1ryy
.	.	.	8e\	.	8a\)	.	8cc#\)	.	.	.	8cc#\J	.	.	.	.	.	.
4E\	.	.	8e\	.	(8a\	.	(8cc#\	.	.	.	8cc#\L	-go	.	.	.	.	.
.	.	.	8e\J	.	8g#X\J)	.	8b\J)	.	.	.	8b\J	.	.	.	.	.	.
!LO:SIC:v:s=4G#	!	!	!	!	!	!	!	!	!	!	!	!	!	!	!	!	!
4G\	.	.	8e\L	.	4g#/	.	4b\	.	.	.	4b\	prae-	.	.	.	.	.
.	.	.	8e\	.	.	.	.	.	.	.	.	.	.	.	.	.	.
4E\	.	.	8e\	.	(8a\L	.	(8cc#\L	.	.	.	8cc#\L	-di-	.	.	.	.	.
.	.	.	8e\J	.	8b\J)	.	8dd\J)	.	.	.	8dd\J	.	.	.	.	.	.
!	!	!	!	!	!LO:LB:g=original	!	!	!	!	!	!	!	!	!	!	!	!
=74	=74	=74	=74	=74	=74	=74	=74	=74	=74	=74	=74	=74	=74	=74	=74	=74	=74
4A\	.	.	8e\L	.	8cc#\L	.	(8ee\L	.	1ryy	1ryy	(8ee\L	-can-	1ryy	1ryy	1ryy	1ryy	1ryy
.	.	.	8e\	.	8b\	.	8dd\)	.	.	.	8dd\)	.	.	.	.	.	.
4E\	.	.	8e\	.	8b\	.	(8dd\	.	.	.	(8dd\	.	.	.	.	.	.
.	.	.	8e\J	.	8a\J	.	8cc#\J)	.	.	.	8cc#\J)	.	.	.	.	.	.
4C#/	.	.	8e\L	.	4a/	.	4cc#\	.	.	.	4cc#\	-da	.	.	.	.	.
.	.	.	8e\	.	.	.	.	.	.	.	.	.	.	.	.	.	.
4AA/	.	.	8e\	.	4r	.	4r	.	.	.	4r	.	.	.	.	.	.
.	.	.	8e\J	.	.	.	.	.	.	.	.	.	.	.	.	.	.
*	*	*	*Xtremolo	*	*	*	*	*	*	*	*	*	*	*	*	*	*
!LO:LB:g=original	!	!	!	!	!	!	!	!	!	!	!	!	!	!	!	!	!
=75	=75	=75	=75	=75	=75	=75	=75	=75	=75	=75	=75	=75	=75	=75	=75	=75	=75
4r	.	.	4r	.	(8dd\L	.	(8ff#\L	.	1ryy	1ryy	8ff#\L	vir-	1ryy	1ryy	1ryy	1ryy	1ryy
.	.	.	.	.	8cc#\)	.	8ee\)	.	.	.	8ee\J	.	.	.	.	.	.
4D\	3	.	4f#\	.	(8cc#\	.	(8ee\	.	.	.	8ee\L	-go	.	.	.	.	.
.	.	.	.	.	8b\J)	.	8dd\J)	.	.	.	8dd\J	.	.	.	.	.	.
4D\	.	.	4f#\	.	(8b\L	.	(8dd\L	.	.	.	8dd\L	Po-	.	.	.	.	.
.	.	.	.	.	8a#X\J)	.	8cc#\J)	.	.	.	8cc#\J	.	.	.	.	.	.
4D\	.	.	4f#\	.	4b\	.	4dd\	.	.	.	4dd\	-tens	.	.	.	.	.
!	!	!	!	!	!	!	!	!	!	!	!LO:LB:g=original	!	!	!	!	!	!
=76	=76	=76	=76	=76	=76	=76	=76	=76	=76	=76	=76	=76	=76	=76	=76	=76	=76
4r	.	.	4r	.	(8cc#\L	.	(8ee\L	.	1ryy	1ryy	8ee\L	Vir-	1ryy	1ryy	1ryy	1ryy	1ryy
.	.	.	.	.	8b\)	.	8dd\)	.	.	.	8dd\J	.	.	.	.	.	.
4C#/	.	.	4e\	.	(8b\	.	(8dd\	.	.	.	8dd\L	-go	.	.	.	.	.
.	.	.	.	.	8an\J)	.	8cc#\J)	.	.	.	8cc#\J	.	.	.	.	.	.
4AA/	.	.	4e\	.	(8a/L	.	(8cc#\L	.	.	.	8cc#\L	Cle-	.	.	.	.	.
.	.	.	.	.	8g#X/J)	.	8b\J)	.	.	.	8b\J	.	.	.	.	.	.
4C#/	.	.	4e\	.	4a/	.	4cc#\	.	.	.	4cc#\	-mens	.	.	.	.	.
!	!	!	!LO:LB:g=original	!	!	!	!	!	!	!	!	!	!	!	!	!	!
=77	=77	=77	=77	=77	=77	=77	=77	=77	=77	=77	=77	=77	=77	=77	=77	=77	=77
2E\	#	.	2g\	.	8b'\L	.	8dd'\L	.	1ryy	1ryy	8dd\L	Vir-	1ryy	1ryy	1ryy	1ryy	1ryy
.	.	.	.	.	8a'\	.	8cc#'\	.	.	.	8cc#\J	.	.	.	.	.	.
.	.	.	.	.	8b'\	.	8b'\	.	.	.	8b\	-go	.	.	.	.	.
.	.	.	.	.	8g#X'\J	.	8a'\J	.	.	.	8a\	Fi-	.	.	.	.	.
2r	.	.	2r	.	8a'\L	.	8g#X'/L	.	.	.	8g#X\L	-de-	.	.	.	.	.
.	.	.	.	.	8cc#'\	.	8a'/	.	.	.	8a\	.	.	.	.	.	.
.	.	.	.	.	8dd'\	.	8b'/	.	.	.	8b\	.	.	.	.	.	.
.	.	.	.	.	8b'\J	.	8cc#'/J	.	.	.	8cc#\J	.	.	.	.	.	.
!	!	!	!	!	!	!	!LO:LB:g=original	!	!	!	!	!	!	!	!	!	!
=78	=78	=78	=78	=78	=78	=78	=78	=78	=78	=78	=78	=78	=78	=78	=78	=78	=78
1r	.	.	1r	.	8b\L	.	(8dd\L	.	1ryy	1ryy	(8dd\L	-lis	1ryy	1ryy	1ryy	1ryy	1ryy
.	.	.	.	.	8a\	.	8cc#\)	.	.	.	8cc#\J)	.	.	.	.	.	.
.	.	.	.	.	8b\	.	8dd'\	.	.	.	(8dd\L	o-	.	.	.	.	.
.	.	.	.	.	8g#X\J	.	8b'\J	.	.	.	8b\J)	.	.	.	.	.	.
.	.	.	.	.	8a\L	.	8cc#'\L	.	.	.	8cc#\L	.	.	.	.	.	.
.	.	.	.	.	8cc#\	.	8ee'\	.	.	.	(8ee\	.	.	.	.	.	.
.	.	.	.	.	8dd\	.	8ff#'\	.	.	.	8ff#\)	.	.	.	.	.	.
.	.	.	.	.	8b\J	.	8dd'\J	.	.	.	8dd\J	.	.	.	.	.	.
=79	=79	=79	=79	=79	=79	=79	=79	=79	=79	=79	=79	=79	=79	=79	=79	=79	=79
4AA/	.	.	4e\	.	(8a/L	.	(8cc#\L	.	1ryy	1ryy	(8cc#\L	-ra	1ryy	1ryy	1ryy	1ryy	1ryy
.	.	.	.	.	8cc#/)	.	8ee\)	.	.	.	8ee\J)	.	.	.	.	.	.
4C#/	.	.	4e\	.	8c#/	.	(8a\	.	.	.	(8a\L	pro	.	.	.	.	.
.	.	.	.	.	8e/J	.	8cc#\J)	.	.	.	8cc#\J)	.	.	.	.	.	.
4E\	4	.	4f#\	.	8d/L	.	(8b\L	.	.	.	(8b\L	no-	.	.	.	.	.
.	.	.	.	.	8f#/	.	8dd\)	.	.	.	8dd\J)	.	.	.	.	.	.
4EE/	#	.	4e\	.	8B/	.	(8g#X\	.	.	.	(8g#X\L	.	.	.	.	.	.
.	.	.	.	.	8d/J	.	8b\J)	.	.	.	8b\J)	.	.	.	.	.	.
=80	=80	=80	=80	=80	=80	=80	=80	=80	=80	=80	=80	=80	=80	=80	=80	=80	=80
4AA/	.	.	2e\	.	2d/	.	(2b\	.	1ryy	1ryy	2b\	-bis	1ryy	1ryy	1ryy	1ryy	1ryy
!	!	!	!	!LO:DY:b:t=forte	!	!	!	!	!	!	!	!	!	!	!	!	!
4A\	.	.	.	f	.	.	.	.	.	.	.	.	.	.	.	.	.
4AA/	.	.	4e\	.	4c#/	.	4a/)	.	.	.	4a\	.	.	.	.	.	.
4r	.	.	4e\	.	4r	.	4r	.	.	.	4r	.	.	.	.	.	.
!	!	!	!	!	!LO:LB:g=original	!	!	!	!	!	!	!	!	!	!	!	!
=81	=81	=81	=81	=81	=81	=81	=81	=81	=81	=81	=81	=81	=81	=81	=81	=81	=81
!	!	!	!LO:TX:b:i:t=Solo	!	!	!	!	!	!	!	!LO:TX:a:t=14	!	!	!	!	!	!
4r	.	.	4.dd\	.	4r	.	4r	.	1ryy	1ryy	00r	.	1ryy	1ryy	1ryy	1ryy	1ryy
!	!	!	!	!	!	!LO:DY:b:t=M forte	!	!	!	!	!	!	!	!	!	!	!
4E\	#	.	.	.	4g#X/	mf	4b\	.	.	.	.	.	.	.	.	.	.
.	.	.	8b\	.	.	.	.	.	.	.	.	.	.	.	.	.	.
4G#X\	.	.	(8a\L	.	4g#/	.	4b\	.	.	.	.	.	.	.	.	.	.
.	.	.	8g#X\	.	.	.	.	.	.	.	.	.	.	.	.	.	.
4E\	.	.	8f#\	.	4b/	.	4dd\	.	.	.	.	.	.	.	.	.	.
.	.	.	8e\J)	.	.	.	.	.	.	.	.	.	.	.	.	.	.
=82	=82	=82	=82	=82	=82	=82	=82	=82	=82	=82	=82	=82	=82	=82	=82	=82	=82
4A\	.	.	(8a\L	.	4a/	.	4cc# 4e/	.	1ryy	1ryy	.	.	1ryy	1ryy	1ryy	1ryy	1ryy
.	.	.	8e\J)	.	.	.	.	.	.	.	.	.	.	.	.	.	.
4AA/	.	.	8cc#\L	.	4r	.	4r	.	.	.	.	.	.	.	.	.	.
.	.	.	8a\J	.	.	.	.	.	.	.	.	.	.	.	.	.	.
4r	.	.	(16dd#X\LL	.	4r	.	4r	.	.	.	.	.	.	.	.	.	.
.	.	.	16ee\)	.	.	.	.	.	.	.	.	.	.	.	.	.	.
.	.	.	(16dd#\	.	.	.	.	.	.	.	.	.	.	.	.	.	.
.	.	.	16ee\JJ)	.	.	.	.	.	.	.	.	.	.	.	.	.	.
4AA/	.	.	16ddn\LL	.	4a/	.	4cc#\	.	.	.	.	.	.	.	.	.	.
.	.	.	16cc#\	.	.	.	.	.	.	.	.	.	.	.	.	.	.
.	.	.	16b\	.	.	.	.	.	.	.	.	.	.	.	.	.	.
.	.	.	16a\JJ	.	.	.	.	.	.	.	.	.	.	.	.	.	.
!	!	!	!LO:LB:g=original	!	!	!	!	!	!	!	!	!	!	!	!	!	!
=83	=83	=83	=83	=83	=83	=83	=83	=83	=83	=83	=83	=83	=83	=83	=83	=83	=83
4r	.	.	4.dd\	.	4r	.	4r	.	1ryy	1ryy	.	.	1ryy	1ryy	1ryy	1ryy	1ryy
4E\	.	.	.	.	4g#X/	.	4b\	.	.	.	.	.	.	.	.	.	.
.	.	.	8b\	.	.	.	.	.	.	.	.	.	.	.	.	.	.
4G#X\	.	.	(8a\L	.	4g#/	.	4dd\	.	.	.	.	.	.	.	.	.	.
.	.	.	8g#X\	.	.	.	.	.	.	.	.	.	.	.	.	.	.
4E\	.	.	8f#\	.	4b/	.	4dd\	.	.	.	.	.	.	.	.	.	.
.	.	.	8e\J)	.	.	.	.	.	.	.	.	.	.	.	.	.	.
=84	=84	=84	=84	=84	=84	=84	=84	=84	=84	=84	=84	=84	=84	=84	=84	=84	=84
!	!	!	!LO:TX:t=P:problem:mixed beam	!	!	!	!	!	!	!	!	!	!	!	!	!	!
2AA/	.	.	8a\L	.	2a/	.	2cc# 2e/	.	1ryy	1ryy	.	.	1ryy	1ryy	1ryy	1ryy	1ryy
.	.	.	8A/	.	.	.	.	.	.	.	.	.	.	.	.	.	.
.	.	.	8c#/	.	.	.	.	.	.	.	.	.	.	.	.	.	.
.	.	.	8e/J	.	.	.	.	.	.	.	.	.	.	.	.	.	.
2r	.	.	8a\L	.	2r	.	2r	.	.	.	.	.	.	.	.	.	.
.	.	.	8cc#\	.	.	.	.	.	.	.	.	.	.	.	.	.	.
.	.	.	8ee\	.	.	.	.	.	.	.	.	.	.	.	.	.	.
.	.	.	8gn\J	.	.	.	.	.	.	.	.	.	.	.	.	.	.
!LO:LB:g=original	!	!	!	!	!	!	!	!	!	!	!	!	!	!	!	!	!
=85	=85	=85	=85	=85	=85	=85	=85	=85	=85	=85	=85	=85	=85	=85	=85	=85	=85
4r	.	.	(8g\L	.	4r	.	4r	.	1ryy	1ryy	00r	.	1ryy	1ryy	1ryy	1ryy	1ryy
.	.	.	8f#\J)	.	.	.	.	.	.	.	.	.	.	.	.	.	.
4D\	6 3	.	4.f#\	.	4f#/	.	4b\	.	.	.	.	.	.	.	.	.	.
4D\	3	.	.	.	4f#/	.	(4b\	.	.	.	.	.	.	.	.	.	.
.	.	.	8dd\	.	.	.	.	.	.	.	.	.	.	.	.	.	.
4E\	+4r	.	(8cc#\L	.	4f#/	.	4a#X\)	.	.	.	.	.	.	.	.	.	.
.	.	.	8a#X\J)	.	.	.	.	.	.	.	.	.	.	.	.	.	.
!	!	!	!	!	!	!	!LO:LB:g=original	!	!	!	!	!	!	!	!	!	!
=86	=86	=86	=86	=86	=86	=86	=86	=86	=86	=86	=86	=86	=86	=86	=86	=86	=86
2D\	6	.	(8b\L	.	2f#/	.	2b/	.	1ryy	1ryy	.	.	1ryy	1ryy	1ryy	1ryy	1ryy
.	.	.	8cc#\)	.	.	.	.	.	.	.	.	.	.	.	.	.	.
.	.	.	(8cc#\	.	.	.	.	.	.	.	.	.	.	.	.	.	.
.	.	.	8dd\J)	.	.	.	.	.	.	.	.	.	.	.	.	.	.
2r	.	.	8dd\L	.	2r	.	4r	.	.	.	.	.	.	.	.	.	.
.	.	.	8ee\	.	.	.	.	.	.	.	.	.	.	.	.	.	.
.	.	.	8ff#\	.	.	.	8r	.	.	.	.	.	.	.	.	.	.
.	.	.	8dd\J	.	.	.	8b\	.	.	.	.	.	.	.	.	.	.
!	!	!	!LO:LB:g=original	!	!	!	!	!	!	!	!	!	!	!	!	!	!
=87	=87	=87	=87	=87	=87	=87	=87	=87	=87	=87	=87	=87	=87	=87	=87	=87	=87
4C#/	.	.	8cc#\L	.	4r	.	4a/	.	1ryy	1ryy	.	.	1ryy	1ryy	1ryy	1ryy	1ryy
.	.	.	8ee\	.	.	.	.	.	.	.	.	.	.	.	.	.	.
!	!	!	!	!	!	!	!LO:TUP:b:problem:klamra łukowa	!	!	!	!	!	!	!	!	!	!
4D/	.	.	8dd\	.	4f#/	.	12f#/L	.	.	.	.	.	.	.	.	.	.
.	.	.	.	.	.	.	12e/	.	.	.	.	.	.	.	.	.	.
.	.	.	8b\J	.	.	.	.	.	.	.	.	.	.	.	.	.	.
.	.	.	.	.	.	.	12d/J	.	.	.	.	.	.	.	.	.	.
4E/	4	.	4a\	.	4e/	.	4c#/	.	.	.	.	.	.	.	.	.	.
4EE/	#	.	4g#X\	.	4e/	.	4B/	.	.	.	.	.	.	.	.	.	.
=88	=88	=88	=88	=88	=88	=88	=88	=88	=88	=88	=88	=88	=88	=88	=88	=88	=88
*	*	*	*clefG2	*	*	*	*	*	*	*	*	*	*	*	*	*	*
!	!	!	!LO:TX:a:t=Violin&colon;	!	!LO:TX:b:i:t=dolce	!	!	!	!	!	!	!	!	!	!	!	!
2AA/	.	.	4.ee\	.	4.c#/	.	0r	.	1ryy	1ryy	.	.	1ryy	1ryy	1ryy	1ryy	1ryy
.	.	.	8dd\	.	8B/	.	.	.	.	.	.	.	.	.	.	.	.
2r	.	.	(8cc#\L	.	8A/L	.	.	.	.	.	.	.	.	.	.	.	.
.	.	.	8b\	.	8G#X/	.	.	.	.	.	.	.	.	.	.	.	.
.	.	.	8cc#\	.	8A/	.	.	.	.	.	.	.	.	.	.	.	.
.	.	.	8dd\J)	.	8B/J	.	.	.	.	.	.	.	.	.	.	.	.
=89	=89	=89	=89	=89	=89	=89	=89	=89	=89	=89	=89	=89	=89	=89	=89	=89	=89
!LO:TX:a:t=1	!	!	!	!	!	!LO:DY:b:rj:t=pia	!	!	!	!	!	!	!	!	!	!	!
1r	.	.	4.ee\	.	4.c#/	p	.	.	1ryy	1ryy	00r	.	1ryy	1ryy	1ryy	1ryy	1ryy
.	.	.	8cc#\	.	8A/	.	.	.	.	.	.	.	.	.	.	.	.
.	.	.	(8.ee\L	.	8.c#/L	.	.	.	.	.	.	.	.	.	.	.	.
.	.	.	16cc#\K)	.	16A/K	.	.	.	.	.	.	.	.	.	.	.	.
.	.	.	(8.ee\	.	8.c#/	.	.	.	.	.	.	.	.	.	.	.	.
.	.	.	16cc#\Jk)	.	16A/Jk	.	.	.	.	.	.	.	.	.	.	.	.
!	!	!	!	!	!LO:LB:g=original	!	!	!	!	!	!	!	!	!	!	!	!
=90	=90	=90	=90	=90	=90	=90	=90	=90	=90	=90	=90	=90	=90	=90	=90	=90	=90
4AA/	.	.	(8.ee\L	.	8.c#/L	.	1r	.	1ryy	1ryy	.	.	1ryy	1ryy	1ryy	1ryy	1ryy
.	.	.	16cc#\K)	.	16A/K	.	.	.	.	.	.	.	.	.	.	.	.
4D\	.	.	(8.dd\	.	8.B/	.	.	.	.	.	.	.	.	.	.	.	.
.	.	.	16b\Jk)	.	16d/Jk	.	.	.	.	.	.	.	.	.	.	.	.
.	.	.	8qb/	.	.	.	.	.	.	.	.	.	.	.	.	.	.
4E\	4	.	4a/	.	4c#/	.	.	.	.	.	.	.	.	.	.	.	.
!	!	!	!	!	!	!	!LO:TX:a:t=vi	!	!	!	!	!	!	!	!	!	!
4EE/	#	.	4g#X/	.	4B/	.	.	.	.	.	.	.	.	.	.	.	.
!	!	!	!LO:LB:g=original	!	!	!	!	!	!	!	!	!	!	!	!	!	!
=91	=91	=91	=91	=91	=91	=91	=91	=91	=91	=91	=91	=91	=91	=91	=91	=91	=91
*	*	*	*clefC3	*	*	*	*	*	*	*	*	*	*	*	*	*	*
!	!	!	!	!	!	!	!LO:TX:b:t=dolce	!	!	!	!	!	!	!	!	!	!
!	!	!	!LO:TX:a:t=Alt&colon;	!	!LO:TX:b:i:t=dolce	!	!LO:TX:a:t=de	!	!	!	!	!	!	!	!	!	!
2AA/	.	.	4.e\	.	4.cc#\	.	4.ee\	.	1ryy	1ryy	.	.	1ryy	1ryy	1ryy	1ryy	1ryy
.	.	.	8d\	.	8b\	.	8dd\	.	.	.	.	.	.	.	.	.	.
2r	.	.	8c#\L	.	8a/L	.	8cc#\L	.	.	.	.	.	.	.	.	.	.
!	!	!	!	!	!	!LO:DY:b:t=forte	!	!	!	!	!	!	!	!	!	!	!
.	.	.	8B\	.	8g#X/	f	8b\	.	.	.	.	.	.	.	.	.	.
.	.	.	8c#\	.	8a/	.	8cc#\	.	.	.	.	.	.	.	.	.	.
!	!	!	!	!	!	!	!	!LO:DY:b:t=for	!	!	!	!	!	!	!	!	!
.	.	.	8d\J	.	8b/J	.	8dd\J	f	.	.	.	.	.	.	.	.	.
=92	=92	=92	=92	=92	=92	=92	=92	=92	=92	=92	=92	=92	=92	=92	=92	=92	=92
!LO:TX:a:t=2	!	!	!	!	!	!	!	!	!	!	!	!	!	!	!	!	!
0r	.	.	4.e\	.	4.cc#\	.	4.ee\	.	1ryy	1ryy	.	.	1ryy	1ryy	1ryy	1ryy	1ryy
.	.	.	8c#\	.	8a\	.	8cc#\L	.	.	.	.	.	.	.	.	.	.
.	.	.	8.e\L	.	8.cc#\L	.	8.ee\J	.	.	.	.	.	.	.	.	.	.
.	.	.	16c#\Jk	.	16a\K	.	16cc#\KL	.	.	.	.	.	.	.	.	.	.
.	.	.	8.e\L	.	8.cc#\	.	8.ee\	.	.	.	.	.	.	.	.	.	.
.	.	.	16c#\Jk	.	16a\Jk	.	16cc#\Jk	.	.	.	.	.	.	.	.	.	.
=93	=93	=93	=93	=93	=93	=93	=93	=93	=93	=93	=93	=93	=93	=93	=93	=93	=93
.	.	.	(8e\L	.	8cc#\L	.	8ee\L	.	1ryy	1ryy	0r	.	1ryy	1ryy	1ryy	1ryy	1ryy
.	.	.	8f#\	.	(8dd\	.	(8ff#\	.	.	.	.	.	.	.	.	.	.
.	.	.	8g#X\	.	8ee\)	.	8gg#X\)	.	.	.	.	.	.	.	.	.	.
.	.	.	8a\J)	.	8ff#\J	.	8aa\J	.	.	.	.	.	.	.	.	.	.
.	.	.	(8a\L	.	8ff#\L	.	8aa\L	.	.	.	.	.	.	.	.	.	.
.	.	.	8g#\	.	8ee\	.	(8gg#\	.	.	.	.	.	.	.	.	.	.
.	.	.	8f#\	.	8dd\	.	8ff#\	.	.	.	.	.	.	.	.	.	.
.	.	.	8e\J)	.	8cc#\J	.	8ee\J)	.	.	.	.	.	.	.	.	.	.
=94	=94	=94	=94	=94	=94	=94	=94	=94	=94	=94	=94	=94	=94	=94	=94	=94	=94
4C#/	.	.	4e\	.	8.cc#\L	.	8.ee\L	.	1ryy	1ryy	.	.	1ryy	1ryy	1ryy	1ryy	1ryy
.	.	.	.	.	16a\Jk	.	16cc#\K	.	.	.	.	.	.	.	.	.	.
4D/	.	.	4f#\	.	8.f#/L	.	8.dd\	.	.	.	.	.	.	.	.	.	.
.	.	.	.	.	16d/Jk	.	16b\Jk	.	.	.	.	.	.	.	.	.	.
4E\	4	.	4e\	.	4c#/	.	4a/	.	.	.	.	.	.	.	.	.	.
4EE/	#	.	4e\	.	8B/L	.	8g#X/L	.	.	.	.	.	.	.	.	.	.
.	.	.	.	.	8d/J	.	8b/J	.	.	.	.	.	.	.	.	.	.
!	!	!	!LO:LB:g=original	!	!	!	!	!	!	!	!LO:LB:g=original	!	!	!	!	!	!
=95	=95	=95	=95	=95	=95	=95	=95	=95	=95	=95	=95	=95	=95	=95	=95	=95	=95
!	!	!	!	!LO:DY:b:t=piano	!	!	!	!	!	!	!	!	!	!	!	!	!
4AA/	.	.	2e\	p	2d/	.	2b\	.	1ryy	1ryy	2r	.	1ryy	1ryy	1ryy	1ryy	1ryy
4A\	.	.	.	.	.	.	.	.	.	.	.	.	.	.	.	.	.
4AA/	.	.	4e\	.	4c#/	.	4a/	.	.	.	4r	.	.	.	.	.	.
!	!	!	!LO:TX:b:t=Vox	!	!	!	!	!	!	!	!	!	!	!	!	!	!
4r	.	.	4e\	.	4r	.	4r	.	.	.	(4e\	Spe-	.	.	.	.	.
=96	=96	=96	=96	=96	=96	=96	=96	=96	=96	=96	=96	=96	=96	=96	=96	=96	=96
!	!	!LO:DY:b:t=p&colon;	!	!	!	!LO:DY:b:rj:t=piano	!LO:TX:b:t=Vox	!	!	!	!	!	!	!	!	!	!
4r	.	p	8a\L	.	4r	p	4r	.	1ryy	1ryy	8a\)	.	1ryy	1ryy	1ryy	1ryy	1ryy
.	.	.	8e\J	.	.	.	.	.	.	.	8e\	-cu-	.	.	.	.	.
!LO:TX:b:t=vox&colon;	!	!	!	!	!	!	!	!	!	!	!	!	!	!	!	!	!
4AA/	.	.	2e\	.	4cc#'\	.	4ee\	.	.	.	2e\	-lum	.	.	.	.	.
4AA/	.	.	.	.	4cc#'\	.	4ee\	.	.	.	.	.	.	.	.	.	.
4AA/	.	.	(16dd\LL	.	4cc#'\	.	4ee\	.	.	.	16dd\LL	jus-	.	.	.	.	.
.	.	.	16cc#\	.	.	.	.	.	.	.	(16cc#\	.	.	.	.	.	.
.	.	.	16b\	.	.	.	.	.	.	.	16b\)	.	.	.	.	.	.
.	.	.	16a\JJ)	.	.	.	.	.	.	.	16a\JJ	.	.	.	.	.	.
!LO:LB:g=original	!	!	!	!	!	!	!	!	!	!	!	!	!	!	!	!	!
=97	=97	=97	=97	=97	=97	=97	=97	=97	=97	=97	=97	=97	=97	=97	=97	=97	=97
4r	.	.	8a\L	.	4r	.	4r	.	1ryy	1ryy	8a\	-ti-	1ryy	1ryy	1ryy	1ryy	1ryy
.	.	.	8g#X\J	.	.	.	.	.	.	.	8g#X\	-ti-	.	.	.	.	.
4BB/	.	.	4g#\	.	4dd'\	.	4ee\	.	.	.	4g#\	-a	.	.	.	.	.
4BB/	.	.	(16g#\LL	.	4dd'\	.	4ee\	.	.	.	(16g#\LL	Se-	.	.	.	.	.
.	.	.	16a\)	.	.	.	.	.	.	.	16a\)	.	.	.	.	.	.
.	.	.	(16g#\	.	.	.	.	.	.	.	(16g#\	.	.	.	.	.	.
.	.	.	16a\JJ)	.	.	.	.	.	.	.	16a\JJ)	.	.	.	.	.	.
4BB/	.	.	(16b\LL	.	4dd'\	.	4ee\	.	.	.	(16b\LL	.	.	.	.	.	.
.	.	.	16cc#\)	.	.	.	.	.	.	.	16cc#\)	.	.	.	.	.	.
.	.	.	(16b\	.	.	.	.	.	.	.	(16b\	.	.	.	.	.	.
.	.	.	16cc#\JJ)	.	.	.	.	.	.	.	16cc#\JJ)	.	.	.	.	.	.
!	!	!	!	!	!LO:LB:g=original	!	!	!	!	!	!	!	!	!	!	!	!
=98	=98	=98	=98	=98	=98	=98	=98	=98	=98	=98	=98	=98	=98	=98	=98	=98	=98
4r	.	.	(16dd\LL	.	4r	.	4r	.	1ryy	1ryy	(16dd\LL	.	1ryy	1ryy	1ryy	1ryy	1ryy
.	.	.	16cc#\)	.	.	.	.	.	.	.	16cc#\)	.	.	.	.	.	.
.	.	.	(16dd\	.	.	.	.	.	.	.	(16dd\	-des	.	.	.	.	.
.	.	.	16cc#\JJ)	.	.	.	.	.	.	.	16cc#\JJ)	.	.	.	.	.	.
4G#X\	.	.	4dd\	.	4b'\	.	4ee\	.	.	.	4dd\	Sa-	.	.	.	.	.
!	!	!	!LO:LB:g=original	!	!	!	!	!	!	!	!	!	!	!	!	!	!
4G#\	.	.	(16dd\LL	.	4b'\	.	4ee\	.	.	.	16dd\LL	.	.	.	.	.	.
.	.	.	16cc#\	.	.	.	.	.	.	.	(16cc#\	.	.	.	.	.	.
.	.	.	16b\	.	.	.	.	.	.	.	16b\)	.	.	.	.	.	.
.	.	.	16a\JJ)	.	.	.	.	.	.	.	16a\JJ	.	.	.	.	.	.
4G#\	.	.	(16g#X\LL	.	4b'\	.	4ee\	.	.	.	16g#X\LL	-pi-	.	.	.	.	.
.	.	.	16f#\	.	.	.	.	.	.	.	(16f#\	.	.	.	.	.	.
.	.	.	16e\	.	.	.	.	.	.	.	16e\)	.	.	.	.	.	.
.	.	.	16d\JJ)	.	.	.	.	.	.	.	16d\JJ	.	.	.	.	.	.
=99	=99	=99	=99	=99	=99	=99	=99	=99	=99	=99	=99	=99	=99	=99	=99	=99	=99
4r	.	.	8.dT\L	.	4r	.	4r	.	1ryy	1ryy	8.dT\	-en-	1ryy	1ryy	1ryy	1ryy	1ryy
.	.	.	(32c#\LL	.	.	.	.	.	.	.	(32c#\LLL	-ti-	.	.	.	.	.
.	.	.	32d\JJJ)	.	.	.	.	.	.	.	32d\JJJ)	.	.	.	.	.	.
4A\	.	.	4c#\	.	4cc#'\	.	4ee\	.	.	.	4c#\	-a	.	.	.	.	.
4A\	.	.	4r	.	4cc#'\	.	4ee\	.	.	.	4r	.	.	.	.	.	.
4A\	.	.	(16cc#\LL	.	4cc#'\	.	4ee\	.	.	.	(16cc#\LL	o-	.	.	.	.	.
.	.	.	16a\)	.	.	.	.	.	.	.	16a\)	.	.	.	.	.	.
.	.	.	(16cc#\	.	.	.	.	.	.	.	(16cc#\	.	.	.	.	.	.
.	.	.	16a\JJ)	.	.	.	.	.	.	.	16a\JJ)	.	.	.	.	.	.
!	!	!	!	!	!	!	!	!	!	!	!LO:LB:g=original	!	!	!	!	!	!
=100	=100	=100	=100	=100	=100	=100	=100	=100	=100	=100	=100	=100	=100	=100	=100	=100	=100
4D/	.	.	4f#\	.	4r	.	4r	.	1ryy	1ryy	4f#\	-ra	1ryy	1ryy	1ryy	1ryy	1ryy
4BB/	.	.	8dd\L	.	4f#/	.	4dd\	.	.	.	8dd\	pro	.	.	.	.	.
.	.	.	8b\J	.	.	.	.	.	.	.	8b\	.	.	.	.	.	.
4E\	4	.	8.a\L	.	4e/	.	4cc#\	.	.	.	8.a\L	no-	.	.	.	.	.
.	.	.	16b\Jk	.	.	.	.	.	.	.	16b\Jk	.	.	.	.	.	.
!	!	!	!LO:SIC:v:t=znaczek wyglądający jak custos po kresce taktowej	!	!	!	!	!	!	!	!	!	!	!	!	!	!
4EE/	#	.	4bT\	.	4e/	.	4b\	.	.	.	4bT\	.	.	.	.	.	.
*	*	*	*custos:d	*	*	*	*	*	*	*	*	*	*	*	*	*	*
!	!	!	!LO:LB:g=original	!	!	!	!	!	!	!	!	!	!	!	!	!	!
=101	=101	=101	=101	=101	=101	=101	=101	=101	=101	=101	=101	=101	=101	=101	=101	=101	=101
4AA/	.	.	4a\	.	2c#/	.	2a/	.	1ryy	1ryy	4a\	-bis	1ryy	1ryy	1ryy	1ryy	1ryy
!	!	!LO:DY:b:t=for	!	!	!	!	!	!	!	!	!	!	!	!	!	!	!
8A'\L	.	f	4r	.	.	.	.	.	.	.	4r	.	.	.	.	.	.
8B'\J	.	.	.	.	.	.	.	.	.	.	.	.	.	.	.	.	.
8A'\L	.	.	4r	.	2r	.	2r	.	.	.	4r	.	.	.	.	.	.
8Gn'\	.	.	.	.	.	.	.	.	.	.	.	.	.	.	.	.	.
8F#'\	.	.	8r	.	.	.	.	.	.	.	8r	.	.	.	.	.	.
8E'\J	.	.	(32f#\LLL	.	.	.	.	.	.	.	(32f#\LLL	Cau-	.	.	.	.	.
.	.	.	32a\)	.	.	.	.	.	.	.	32a\)	.	.	.	.	.	.
.	.	.	(32g\	.	.	.	.	.	.	.	(32gn\	.	.	.	.	.	.
!	!	!	!	!	!	!	!	!	!	!	!LO:TX:a:t=h	!	!	!	!	!	!
.	.	.	32b\JJJ)	.	.	.	.	.	.	.	32b\JJJ)	.	.	.	.	.	.
=102	=102	=102	=102	=102	=102	=102	=102	=102	=102	=102	=102	=102	=102	=102	=102	=102	=102
4r	.	.	(8a\L	.	4r	.	4r	.	1ryy	1ryy	8a\L	.	1ryy	1ryy	1ryy	1ryy	1ryy
.	.	.	8f#\J)	.	.	.	.	.	.	.	8f#\J	.	.	.	.	.	.
!	!	!LO:DY:b:t=piano	!	!	!	!	!	!	!	!	!	!	!	!	!	!	!
4D\	.	p	2d\	.	4f#'/	.	4a/	.	.	.	4d\	-sa	.	.	.	.	.
4D\	.	.	.	.	4f#'/	.	4a/	.	.	.	8r	.	.	.	.	.	.
.	.	.	.	.	.	.	.	.	.	.	8d\	nos-	.	.	.	.	.
!	!	!	!	!	!	!	!LO:TX:b:t=Ret	!	!	!	!	!	!	!	!	!	!
!	!	!	!	!	!	!	!LO:TX:a:t=Ret	!	!	!	!	!	!	!	!	!	!
4D\	.	.	8a\L	.	4f#'/	.	4a/	.	.	.	8a\	-trae	.	.	.	.	.
.	.	.	8dd\J	.	.	.	.	.	.	.	8dd\	l(a)e-	.	.	.	.	.
=103	=103	=103	=103	=103	=103	=103	=103	=103	=103	=103	=103	=103	=103	=103	=103	=103	=103
!	!	!	!	!	!	!	!LO:TX:b:t=ro	!	!	!	!	!	!	!	!	!	!
!	!	!	!	!	!	!	!LO:TX:a:t=ro	!	!	!	!	!	!	!	!	!	!
4r	.	.	8.dd\L	.	4r	.	4r	.	1ryy	1ryy	8.dd\	-ti-	1ryy	1ryy	1ryy	1ryy	1ryy
.	.	.	(32cc#\LL	.	.	.	.	.	.	.	(32cc#\LLL	-(ti)-	.	.	.	.	.
.	.	.	32dd\JJJ)	.	.	.	.	.	.	.	32dd\JJJ)	.	.	.	.	.	.
4E\	.	.	4cc#\	.	4gn'/	.	4a/	.	.	.	4cc#\	-ae	.	.	.	.	.
4E\	.	.	4r	.	4g'/	.	4a/	.	.	.	4r	.	.	.	.	.	.
4E\	.	.	8r	.	4g'/	.	4a/	.	.	.	8r	.	.	.	.	.	.
.	.	.	(32c#\LLL	.	.	.	.	.	.	.	(32c#\LLL	Vas	.	.	.	.	.
.	.	.	32e\)	.	.	.	.	.	.	.	32e\)	.	.	.	.	.	.
.	.	.	(32d\	.	.	.	.	.	.	.	(32d\	.	.	.	.	.	.
.	.	.	32f#\JJJ)	.	.	.	.	.	.	.	32f#\JJJ)	.	.	.	.	.	.
=104	=104	=104	=104	=104	=104	=104	=104	=104	=104	=104	=104	=104	=104	=104	=104	=104	=104
*	*	*	*	*	*	*	*^	*	*	*	*	*	*	*	*	*	*
4r	.	.	8e\L	.	4r	.	4r	4ryy	.	1ryy	1ryy	8e\L	.	1ryy	1ryy	1ryy	1ryy	1ryy
.	.	.	8c#\J	.	.	.	.	.	.	.	.	8c#\J	.	.	.	.	.	.
4C#/	.	.	2A/	.	4e'/	.	4a'/	4gn\	.	.	.	4A/	vas	.	.	.	.	.
4C#/	.	.	.	.	4e'/	.	4a'/	4g\	.	.	.	8r	.	.	.	.	.	.
.	.	.	.	.	.	.	.	.	.	.	.	8c#\	Spi-	.	.	.	.	.
4C#/	.	.	8ee\L	.	4e'/	.	4a'/	4g\	.	.	.	8e\	-ri-	.	.	.	.	.
.	.	.	8g\J	.	.	.	.	.	.	.	.	8gn\	-tu-	.	.	.	.	.
*	*	*	*	*	*	*	*v	*v	*	*	*	*	*	*	*	*	*	*
!	!	!	!	!	!	!	!	!	!	!	!LO:LB:g=original	!	!	!	!	!	!
=105	=105	=105	=105	=105	=105	=105	=105	=105	=105	=105	=105	=105	=105	=105	=105	=105	=105
4r	.	.	8.g\L	.	4r	.	4r	.	1ryy	1ryy	8.gT\L	-a-	1ryy	1ryy	1ryy	1ryy	1ryy
.	.	.	32f#\LL	.	.	.	.	.	.	.	32f#\LL	.	.	.	.	.	.
.	.	.	32g\JJJ	.	.	.	.	.	.	.	32g\JJJ	.	.	.	.	.	.
4D\	.	.	4f#\	.	4f#'/	.	4a/	.	.	.	4f#\	-le	.	.	.	.	.
4D\	.	.	2r	.	4f#'/	.	4a/	.	.	.	4r	.	.	.	.	.	.
4D\	.	.	.	.	4r	.	(16cc#\LL	.	.	.	(16cc#\LL	vas-	.	.	.	.	.
.	.	.	.	.	.	.	16dd\)	.	.	.	16dd\)	.	.	.	.	.	.
.	.	.	.	.	.	.	(16cc#\	.	.	.	(16cc#\	.	.	.	.	.	.
.	.	.	.	.	.	.	16dd\JJ)	.	.	.	16dd\JJ)	.	.	.	.	.	.
!LO:LB:g=original	!	!	!LO:PB:g=original	!	!LO:LB:g=original	!	!	!	!	!	!	!	!	!	!	!	!
=106	=106	=106	=106	=106	=106	=106	=106	=106	=106	=106	=106	=106	=106	=106	=106	=106	=106
4D\	.	.	4r	.	4r	.	4dd\	.	1ryy	1ryy	4dd\	-vas	1ryy	1ryy	1ryy	1ryy	1ryy
4r	.	.	4d'\	.	(4f#/	.	(8ccn\L	.	.	.	8cc#X\L	ho-	.	.	.	.	.
.	.	.	.	.	.	.	8a\J)	.	.	.	(8a\J	.	.	.	.	.	.
4r	.	.	4d'\	.	4g/	.	(8b/L	.	.	.	8b\L)	.	.	.	.	.	.
.	.	.	.	.	.	.	8gn/)	.	.	.	8g\J	.	.	.	.	.	.
4D\	.	.	4d'\	.	4a/)	.	(8a/	.	.	.	8a\L	-no-	.	.	.	.	.
.	.	.	.	.	.	.	8f#/J)	.	.	.	8f#\J	.	.	.	.	.	.
!	!	!	!	!	!	!	!LO:LB:g=original	!	!	!	!	!	!	!	!	!	!
=107	=107	=107	=107	=107	=107	=107	=107	=107	=107	=107	=107	=107	=107	=107	=107	=107	=107
4G\	.	.	4d'\	.	4b'\	.	(8g/L	.	1ryy	1ryy	8g\L	-ra-	1ryy	1ryy	1ryy	1ryy	1ryy
.	.	.	.	.	.	.	8d/)	.	.	.	8d\	.	.	.	.	.	.
4D\	.	.	4d'\	.	4cc#'\	.	(8a/	.	.	.	(8a\	.	.	.	.	.	.
.	.	.	.	.	.	.	8f#/J)	.	.	.	8f#\J)	.	.	.	.	.	.
4GG/	.	.	4d'\	.	4b'\	.	(8g/L	.	.	.	8g\L	.	.	.	.	.	.
.	.	.	.	.	.	.	8d/)	.	.	.	8d\J	.	.	.	.	.	.
4D\	.	.	4d'\	.	4cc#'\	.	(8a/	.	.	.	8a\L	-bi-	.	.	.	.	.
.	.	.	.	.	.	.	8f#/J)	.	.	.	8f#\J	.	.	.	.	.	.
=108	=108	=108	=108	=108	=108	=108	=108	=108	=108	=108	=108	=108	=108	=108	=108	=108	=108
4G\	.	.	4d'\	.	4b\	.	8g/L	.	1ryy	1ryy	4g\	-le	1ryy	1ryy	1ryy	1ryy	1ryy
!	!	!	!	!	!	!	!	!LO:DY:b:t=forte	!	!	!	!	!	!	!	!	!
.	.	.	.	.	.	.	8b/	f	.	.	.	.	.	.	.	.	.
!	!	!	!	!	!	!LO:DY:b:t=for	!	!	!	!	!	!	!	!	!	!	!
4D\	.	.	4d'\	.	4cc#\	f	8a/	.	.	.	4r	.	.	.	.	.	.
.	.	.	.	.	.	.	8f#/J	.	.	.	.	.	.	.	.	.	.
!	!	!	!	!	!	!	!LO:N:vis=8	!	!	!	!	!	!	!	!	!	!
4GG/	.	.	4d'\	.	4b\	.	4g/	.	.	.	4r	.	.	.	.	.	.
4r	.	.	4r	.	4r	.	8r	.	.	.	8r	.	.	.	.	.	.
!	!	!	!	!	!	!	!	!LO:DY:b:t=piano	!	!	!	!	!	!	!	!	!
.	.	.	.	.	.	.	(32dd#X\LLL	p	.	.	32dd#X\LLL	vas	.	.	.	.	.
.	.	.	.	.	.	.	32ee\)	.	.	.	32ee\	.	.	.	.	.	.
.	.	.	.	.	.	.	(32dd#\	.	.	.	32dd#\	.	.	.	.	.	.
.	.	.	.	.	.	.	32ee\JJJ)	.	.	.	32ee\JJJ	.	.	.	.	.	.
=109	=109	=109	=109	=109	=109	=109	=109	=109	=109	=109	=109	=109	=109	=109	=109	=109	=109
4E\	.	.	4r	.	4r	.	4ee\	.	1ryy	1ryy	4ee\	Vas	1ryy	1ryy	1ryy	1ryy	1ryy
!	!	!	!	!	!	!LO:DY:b:t=piano	!	!	!	!	!	!	!	!	!	!	!
4r	.	.	4e\	.	(4g#X/	p	8ddn\L	.	.	.	(8ddn\L	.	.	.	.	.	.
.	.	.	.	.	.	.	8b\J	.	.	.	8b\J)	.	.	.	.	.	.
4r	.	.	4e\	.	4a/	.	(8cc#X\L	.	.	.	8cc#X\L	Sig-	.	.	.	.	.
.	.	.	.	.	.	.	8a\)	.	.	.	8a\J	.	.	.	.	.	.
4E\	.	.	4e\	.	4b/)	.	(8b\	.	.	.	8b\	-ne	.	.	.	.	.
.	.	.	.	.	.	.	8g#X\J)	.	.	.	8g#X\	de-	.	.	.	.	.
!	!	!	!	!	!	!	!	!	!	!	!LO:LB:g=original	!	!	!	!	!	!
=110	=110	=110	=110	=110	=110	=110	=110	=110	=110	=110	=110	=110	=110	=110	=110	=110	=110
4A\	.	.	4e\	.	4cc#'\	.	(8a/L	.	1ryy	1ryy	8a\L	-vo-	1ryy	1ryy	1ryy	1ryy	1ryy
.	.	.	.	.	.	.	8e/)	.	.	.	8e\J	.	.	.	.	.	.
4E\	.	.	4e\	.	4dd'\	.	(8b/	.	.	.	8b\L	-ti-	.	.	.	.	.
.	.	.	.	.	.	.	8g#X/J)	.	.	.	8g#X\J	.	.	.	.	.	.
4AA/	.	.	4e\	.	4cc#'\	.	(8a/L	.	.	.	8a\L	-o-	.	.	.	.	.
.	.	.	.	.	.	.	8e/)	.	.	.	8e\J	.	.	.	.	.	.
4E\	.	.	4e\	.	4dd'\	.	(8b/	.	.	.	8b\L	.	.	.	.	.	.
.	.	.	.	.	.	.	8g#/J)	.	.	.	8g#X\J	.	.	.	.	.	.
=111	=111	=111	=111	=111	=111	=111	=111	=111	=111	=111	=111	=111	=111	=111	=111	=111	=111
4A\	.	.	4e\	.	4cc#\	.	(8a\L	.	1ryy	1ryy	4a\	-nis	1ryy	1ryy	1ryy	1ryy	1ryy
.	.	.	.	.	.	.	8cc#\)	.	.	.	.	.	.	.	.	.	.
!	!	!	!	!	!	!LO:DY:b:t=for	!	!LO:DY:b:t=forte	!	!	!	!	!	!	!	!	!
4E\	.	.	4e\	.	4dd\	f	8b'\	f	.	.	4r	.	.	.	.	.	.
.	.	.	.	.	.	.	8g#X'\J	.	.	.	.	.	.	.	.	.	.
4AA/	.	.	4e\	.	4cc#\	.	4a/	.	.	.	4r	.	.	.	.	.	.
4r	.	.	8a\L	.	4r	.	4r	.	.	.	(8a\L	Ro-	.	.	.	.	.
.	.	.	8cc#\J	.	.	.	.	.	.	.	8cc#\J)	.	.	.	.	.	.
!	!	!	!LO:LB:g=original	!	!	!	!LO:LB:g=original	!	!	!	!	!	!	!	!	!	!
=112	=112	=112	=112	=112	=112	=112	=112	=112	=112	=112	=112	=112	=112	=112	=112	=112	=112
4r	.	.	2ee\	.	4r	.	4r	.	1ryy	1ryy	2ee\	.	1ryy	1ryy	1ryy	1ryy	1ryy
!	!	!	!	!	!	!LO:DY:b:t=piano	!	!LO:DY:b:t=piano	!	!	!	!	!	!	!	!	!
4C#/	6 3	.	.	.	4e'/	p	4a'/	p	.	.	.	.	.	.	.	.	.
4C#/	.	.	2g\	.	4e'/	.	4a'/	.	.	.	2gn\	-sa	.	.	.	.	.
4C#/	.	.	.	.	4e/	.	4a'/	.	.	.	.	.	.	.	.	.	.
=113	=113	=113	=113	=113	=113	=113	=113	=113	=113	=113	=113	=113	=113	=113	=113	=113	=113
4r	.	.	(8g\L	.	4r	.	4r	.	1ryy	1ryy	8g\L	mÿs-	1ryy	1ryy	1ryy	1ryy	1ryy
.	.	.	8f#\)	.	.	.	.	.	.	.	8f#\J	.	.	.	.	.	.
4D\	.	.	(8b\	.	4f#'/	.	4a'/	.	.	.	8b\L	-ti-	.	.	.	.	.
.	.	.	8a\J)	.	.	.	.	.	.	.	8a\J	.	.	.	.	.	.
4D\	.	.	4a\	.	4f#'/	.	4a'/	.	.	.	4a\	-ca	.	.	.	.	.
4D\	.	.	(8b\L	.	4f#'/	.	4a'/	.	.	.	8b\L	Tu-	.	.	.	.	.
.	.	.	8cc#\J)	.	.	.	.	.	.	.	8cc#\J	.	.	.	.	.	.
=114	=114	=114	=114	=114	=114	=114	=114	=114	=114	=114	=114	=114	=114	=114	=114	=114	=114
4r	.	.	(16dd\LL	.	4r	.	4r	.	1ryy	1ryy	16dd\LL	.	1ryy	1ryy	1ryy	1ryy	1ryy
.	.	.	16cc#\)	.	.	.	.	.	.	.	16cc#\	.	.	.	.	.	.
.	.	.	(16dd\	.	.	.	.	.	.	.	16dd\	.	.	.	.	.	.
.	.	.	16cc#\JJ)	.	.	.	.	.	.	.	16cc#\JJ	.	.	.	.	.	.
4D\	.	.	4.dd\	.	4.f#/	.	4a'/	.	.	.	4.dd\	-ris	.	.	.	.	.
4D\	.	.	.	.	.	.	4a'/	.	.	.	.	.	.	.	.	.	.
.	.	.	8f#\	.	8d/	.	.	.	.	.	8f#\	Da-	.	.	.	.	.
4D\	.	.	(8a\L	.	(8f#/L	.	4a'/	.	.	.	8a\	-vi-	.	.	.	.	.
.	.	.	8f#\J)	.	8d/J)	.	.	.	.	.	8f#\	-di[[ca]]-	.	.	.	.	.
!LO:LB:g=original	!	!	!	!	!LO:LB:g=original	!	!	!	!	!	!LO:LB:g=original	!	!	!	!	!	!
=115	=115	=115	=115	=115	=115	=115	=115	=115	=115	=115	=115	=115	=115	=115	=115	=115	=115
.	.	.	.	.	.	.	.	.	.	.	16qqg/	.	.	.	.	.	.
!	!	!LO:DY:b:t=for	!	!	!	!	!	!	!	!	!	!	!	!	!	!	!
4A\	.	f	4f#\	.	4d/	.	4a'/	.	1ryy	1ryy	(4f#\	-ca	1ryy	1ryy	1ryy	1ryy	1ryy
.	.	.	.	.	.	.	.	.	.	.	8qqe/L	.	.	.	.	.	.
.	.	.	.	.	.	.	.	.	.	.	8qqf#/J	.	.	.	.	.	.
8AA'/L	.	.	4e\	.	4c#/	.	4a'/	.	.	.	4e\)	.	.	.	.	.	.
16C#'/L	.	.	.	.	.	.	.	.	.	.	.	.	.	.	.	.	.
16E'/JJ	.	.	.	.	.	.	.	.	.	.	.	.	.	.	.	.	.
8A'\L	.	.	4r	.	2r	.	2r	.	.	.	4r	.	.	.	.	.	.
8E'\	.	.	.	.	.	.	.	.	.	.	.	.	.	.	.	.	.
8C#'\	.	.	4a\	.	.	.	.	.	.	.	[4a\	Tu-	.	.	.	.	.
8AA'\J	.	.	.	.	.	.	.	.	.	.	.	.	.	.	.	.	.
=116	=116	=116	=116	=116	=116	=116	=116	=116	=116	=116	=116	=116	=116	=116	=116	=116	=116
4r	.	.	(8a\L	.	4r	.	4r	.	1ryy	1ryy	8a\L]	.	1ryy	1ryy	1ryy	1ryy	1ryy
.	.	.	8g#X\J)	.	.	.	.	.	.	.	8g#X\J	.	.	.	.	.	.
!	!	!LO:DY:b:t=p&colon;	!	!	!	!	!	!	!	!	!	!	!	!	!	!	!
4BB/	.	p	4.g#\	.	4e'/	.	4dd'\	.	.	.	4.g#\	-ris	.	.	.	.	.
4BB/	.	.	.	.	4e'/	.	4dd'\	.	.	.	.	.	.	.	.	.	.
.	.	.	8b\	.	.	.	.	.	.	.	8b\	.	.	.	.	.	.
4BB/	.	.	(8dd\L	.	4e'/	.	4dd'\	.	.	.	8dd\L	e-	.	.	.	.	.
.	.	.	8b\J)	.	.	.	.	.	.	.	8b\J	.	.	.	.	.	.
!	!	!	!LO:LB:g=original	!	!	!	!	!	!	!	!	!	!	!	!	!	!
=117	=117	=117	=117	=117	=117	=117	=117	=117	=117	=117	=117	=117	=117	=117	=117	=117	=117
4r	.	.	(8b\L	.	4r	.	4r	.	1ryy	1ryy	8b\	-bur-	1ryy	1ryy	1ryy	1ryy	1ryy
.	.	.	8a\J)	.	.	.	.	.	.	.	8a\	-ne-	.	.	.	.	.
4C#/	.	.	4.a\	.	4e'/	.	4cc#'\	.	.	.	4.a\	-a	.	.	.	.	.
4C#/	.	.	.	.	4e'/	.	4cc#'\	.	.	.	.	.	.	.	.	.	.
.	.	.	8cc#\	.	.	.	.	.	.	.	(8cc#\L	Do-	.	.	.	.	.
4C#/	.	.	(8ee\L	.	4e'/	.	4a'\	.	.	.	8ee\J)	.	.	.	.	.	.
!	!	!	!	!	!	!	!	!	!	!	!LO:N:vis=4	!	!	!	!	!	!
.	.	.	8gn\J)	.	.	.	.	.	.	.	8gn\	-mus	.	.	.	.	.
=118	=118	=118	=118	=118	=118	=118	=118	=118	=118	=118	=118	=118	=118	=118	=118	=118	=118
4r	.	.	(8g\L	.	4r	.	4r	.	1ryy	1ryy	8g\	au-	1ryy	1ryy	1ryy	1ryy	1ryy
.	.	.	8e#X\J)	.	.	.	.	.	.	.	8e#X\	-re-	.	.	.	.	.
4D\	.	.	4.f#\	.	4f#'/	.	4a'/	.	.	.	4f#\	-a	.	.	.	.	.
4D\	.	.	.	.	4f#'/	.	4a'/	.	.	.	8r	.	.	.	.	.	.
.	.	.	8a\	.	.	.	.	.	.	.	8a\L	Fe-	.	.	.	.	.
4D\	.	.	(8dd\L	.	4f#'/	.	4a'/	.	.	.	8dd\J	.	.	.	.	.	.
.	.	.	8f#\J)	.	.	.	.	.	.	.	16f#\	-de-	.	.	.	.	.
.	.	.	.	.	.	.	.	.	.	.	16f#\	-ris	.	.	.	.	.
=119	=119	=119	=119	=119	=119	=119	=119	=119	=119	=119	=119	=119	=119	=119	=119	=119	=119
4r	.	.	4.en\	.	4r	.	4r	.	1ryy	1ryy	4.en\	Ar-	1ryy	1ryy	1ryy	1ryy	1ryy
4G\	.	.	.	.	4e'/	.	4b'\	.	.	.	.	.	.	.	.	.	.
.	.	.	8b\	.	.	.	.	.	.	.	8b\	-ca	.	.	.	.	.
4G\	.	.	(8a\L	.	4e'/	.	4b'\	.	.	.	8a\L	o-	.	.	.	.	.
.	.	.	8g\	.	.	.	.	.	.	.	8g\J	.	.	.	.	.	.
4G\	.	.	8f#\	.	4e'/	.	4b'\	.	.	.	8f#\	-ra	.	.	.	.	.
.	.	.	8e\J)	.	.	.	.	.	.	.	8e\	pro	.	.	.	.	.
!	!	!	!	!	!	!	!LO:LB:g=original	!	!	!	!LO:LB:g=original	!	!	!	!	!	!
=120	=120	=120	=120	=120	=120	=120	=120	=120	=120	=120	=120	=120	=120	=120	=120	=120	=120
4A\	.	.	4d/	.	4f#/	.	4a/	.	1ryy	1ryy	4d\	no-	1ryy	1ryy	1ryy	1ryy	1ryy
4E\	.	.	4c#/	.	4e/	.	4a/	.	.	.	4c#\	-bis	.	.	.	.	.
4AA/	.	.	2r	.	2r	.	4r	.	.	.	2r	.	.	.	.	.	.
4r	.	.	.	.	.	.	4a/	.	.	.	.	.	.	.	.	.	.
!	!	!	!LO:LB:g=original	!	!	!	!	!	!	!	!	!	!	!	!	!	!
=121	=121	=121	=121	=121	=121	=121	=121	=121	=121	=121	=121	=121	=121	=121	=121	=121	=121
!	!	!	!LO:TX:b:t=dolce	!	!	!	!	!	!	!	!	!	!	!	!	!	!
4AA/	.	.	8r	.	2e/	.	2cc#\	.	1ryy	1ryy	2e\	ja-	1ryy	1ryy	1ryy	1ryy	1ryy
.	.	.	8c#|\L	.	.	.	.	.	.	.	.	.	.	.	.	.	.
4C#/	.	.	(8e\	.	.	.	.	.	.	.	.	.	.	.	.	.	.
.	.	.	8g\J)	.	.	.	.	.	.	.	.	.	.	.	.	.	.
4D\	.	.	8r	.	2f#/	.	2dd\	.	.	.	4f#\	-nu-	.	.	.	.	.
.	.	.	8f#|\L	.	.	.	.	.	.	.	.	.	.	.	.	.	.
4F#\	.	.	(8a\	.	.	.	.	.	.	.	4f#\	-a	.	.	.	.	.
.	.	.	8dd\J)	.	.	.	.	.	.	.	.	.	.	.	.	.	.
=122	=122	=122	=122	=122	=122	=122	=122	=122	=122	=122	=122	=122	=122	=122	=122	=122	=122
.	.	.	.	.	.	.	.	.	.	.	8qqa/	.	.	.	.	.	.
4A\	.	.	(8ee\L	.	2g/	.	2ee\	.	1ryy	1ryy	2g\	Coe-	1ryy	1ryy	1ryy	1ryy	1ryy
.	.	.	8cc#\	.	.	.	.	.	.	.	.	.	.	.	.	.	.
4AA/	.	.	8a\	.	.	.	.	.	.	.	.	.	.	.	.	.	.
.	.	.	8g\J)	.	.	.	.	.	.	.	.	.	.	.	.	.	.
4D\	.	.	(8f#\L	.	2f#/	.	2dd\	.	.	.	4f#\	-li	.	.	.	.	.
.	.	.	8a\	.	.	.	.	.	.	.	.	.	.	.	.	.	.
4DD/	.	.	8cc#\	.	.	.	.	.	.	.	4r	.	.	.	.	.	.
.	.	.	8dd\J)	.	.	.	.	.	.	.	.	.	.	.	.	.	.
=123	=123	=123	=123	=123	=123	=123	=123	=123	=123	=123	=123	=123	=123	=123	=123	=123	=123
.	.	.	.	.	.	.	.	.	.	.	8qqf#/	.	.	.	.	.	.
!	!	!LO:DY:b:t=pp&colon;	!	!	!	!	!	!LO:DY:b:t=p&colon; p&colon;	!	!	!	!	!	!	!	!	!
4AA/	.	pp	8r	.	2e/	.	2cc#\	pp	1ryy	1ryy	4e\	Stel-	1ryy	1ryy	1ryy	1ryy	1ryy
.	.	.	8c#|\L	.	.	.	.	.	.	.	.	.	.	.	.	.	.
4C#/	.	.	(8e\	.	.	.	.	.	.	.	4e\	-la	.	.	.	.	.
.	.	.	8g\J)	.	.	.	.	.	.	.	.	.	.	.	.	.	.
4D\	.	.	8r	.	2f#/	.	2dd\	.	.	.	4f#\	Ma-	.	.	.	.	.
.	.	.	8f#|\L	.	.	.	.	.	.	.	.	.	.	.	.	.	.
4F#\	.	.	(8a\	.	.	.	.	.	.	.	4f#\	-tu-	.	.	.	.	.
.	.	.	8dd\J)	.	.	.	.	.	.	.	.	.	.	.	.	.	.
!LO:LB:g=original	!	!	!	!	!	!	!	!	!	!	!	!	!	!	!	!	!
=124	=124	=124	=124	=124	=124	=124	=124	=124	=124	=124	=124	=124	=124	=124	=124	=124	=124
4A\	.	.	(8ee\L	.	2g/	.	2ee\	.	1ryy	1ryy	2g\	-ti-	1ryy	1ryy	1ryy	1ryy	1ryy
.	.	.	8cc#\	.	.	.	.	.	.	.	.	.	.	.	.	.	.
4AA/	.	.	8a\	.	.	.	.	.	.	.	.	.	.	.	.	.	.
.	.	.	8g\J)	.	.	.	.	.	.	.	.	.	.	.	.	.	.
4D\	.	.	4f#\	.	4f#/	.	4dd\	.	.	.	8f#\	-na	.	.	.	.	.
.	.	.	.	.	.	.	.	.	.	.	8r	.	.	.	.	.	.
4DD/	.	.	4a\	.	4r	.	4r	.	.	.	4a\	o-	.	.	.	.	.
!	!	!	!LO:LB:g=original	!	!LO:LB:g=original	!	!	!	!	!	!	!	!	!	!	!	!
=125	=125	=125	=125	=125	=125	=125	=125	=125	=125	=125	=125	=125	=125	=125	=125	=125	=125
4r	.	.	2dd\	.	4r	.	4r	.	1ryy	1ryy	2dd\	.	1ryy	1ryy	1ryy	1ryy	1ryy
!	!	!	!	!	!	!	!	!LO:DY:b:t=piano	!	!	!	!	!	!	!	!	!
4F#\	6	.	.	.	4a'/	.	4dd'\	p	.	.	.	.	.	.	.	.	.
4F#\	.	.	4d\	.	4a'/	.	4dd'\	.	.	.	4d\	.	.	.	.	.	.
4F#\	.	.	4ccn\	.	4a'/	.	4dd'\	.	.	.	4ccn\	.	.	.	.	.	.
=126	=126	=126	=126	=126	=126	=126	=126	=126	=126	=126	=126	=126	=126	=126	=126	=126	=126
4r	.	.	(16b\LL	.	4r	.	4r	.	1ryy	1ryy	16b\LL	-ra	1ryy	1ryy	1ryy	1ryy	1ryy
.	.	.	16ccn\	.	.	.	.	.	.	.	(16ccn\	.	.	.	.	.	.
.	.	.	16b\	.	.	.	.	.	.	.	16b\)	.	.	.	.	.	.
.	.	.	16a#X\JJ)	.	.	.	.	.	.	.	16a#X\JJ	.	.	.	.	.	.
4G\	5	.	4.b\	.	4b'\	.	4dd\	.	.	.	4.b\	.	.	.	.	.	.
4G\	.	.	.	.	4b'\	.	4dd\	.	.	.	.	.	.	.	.	.	.
.	.	.	8cc\	.	.	.	.	.	.	.	8cc#X\	o-	.	.	.	.	.
4G\	.	.	8dd\L	.	4b'\	.	4dd\	.	.	.	8dd\L	.	.	.	.	.	.
.	.	.	8b\J	.	.	.	.	.	.	.	8b\J	.	.	.	.	.	.
!	!	!	!	!	!	!	!LO:LB:g=original	!	!	!	!LO:LB:g=original	!	!	!	!	!	!
=127	=127	=127	=127	=127	=127	=127	=127	=127	=127	=127	=127	=127	=127	=127	=127	=127	=127
4F#\	.	.	(8an\L	.	4a/	.	4dd\	.	1ryy	1ryy	8an\L	-ra	1ryy	1ryy	1ryy	1ryy	1ryy
.	.	.	8dd\)	.	.	.	.	.	.	.	8dd\J	.	.	.	.	.	.
4G\	.	.	(8b\	.	4b\	.	4ee\	.	.	.	8b\L	pro	.	.	.	.	.
.	.	.	8g\J)	.	.	.	.	.	.	.	8g\J	.	.	.	.	.	.
4A\	.	.	4f#\	.	4a/	.	4dd\	.	.	.	4f#\	no-	.	.	.	.	.
4AA/	.	.	4e\	.	4a/	.	4cc#\	.	.	.	4e\	-bis	.	.	.	.	.
=128	=128	=128	=128	=128	=128	=128	=128	=128	=128	=128	=128	=128	=128	=128	=128	=128	=128
*	*	*	*	*	*^	*	*	*	*	*	*	*	*	*	*	*	*
*	*	*	*	*	*	*	*	*	*	*	*	*tuplet	*	*	*	*	*	*
4D\	.	.	4dd\	.	4a/	4f#\	.	4dd\	.	1ryy	1ryy	12dd\L	o-	1ryy	1ryy	1ryy	1ryy	1ryy
.	.	.	.	.	.	.	.	.	.	.	.	12cc#\	.	.	.	.	.	.
.	.	.	.	.	.	.	.	.	.	.	.	12dd\J	.	.	.	.	.	.
*	*	*	*	*	*	*	*	*	*	*	*	*Xtuplet	*	*	*	*	*	*
4F#\	.	.	8a\L	.	4r	4ryy	.	4r	.	.	.	12a\L	.	.	.	.	.	.
.	.	.	.	.	.	.	.	.	.	.	.	12b\	.	.	.	.	.	.
.	.	.	8cc#X\J	.	.	.	.	.	.	.	.	.	.	.	.	.	.	.
.	.	.	.	.	.	.	.	.	.	.	.	12cc#X\J	.	.	.	.	.	.
4G\	.	.	4b\	.	2r	2ryy	.	2r	.	.	.	12b\L	.	.	.	.	.	.
.	.	.	.	.	.	.	.	.	.	.	.	12a\	.	.	.	.	.	.
.	.	.	.	.	.	.	.	.	.	.	.	12b\J	.	.	.	.	.	.
4B\	.	.	8e\L	.	.	.	.	.	.	.	.	12e\L	.	.	.	.	.	.
.	.	.	.	.	.	.	.	.	.	.	.	12f#\	.	.	.	.	.	.
.	.	.	8g\J	.	.	.	.	.	.	.	.	.	.	.	.	.	.	.
.	.	.	.	.	.	.	.	.	.	.	.	12g\J	.	.	.	.	.	.
*	*	*	*	*	*v	*v	*	*	*	*	*	*	*	*	*	*	*	*
!	!	!	!LO:LB:g=original	!	!	!	!	!	!	!	!	!	!	!	!	!	!
=129	=129	=129	=129	=129	=129	=129	=129	=129	=129	=129	=129	=129	=129	=129	=129	=129	=129
4A\	4	.	4f#\	.	4r	.	4r	.	1ryy	1ryy	4f#\	-ra	1ryy	1ryy	1ryy	1ryy	1ryy
4A\	.	.	(16dd\LL	.	4d/	.	4f#/	.	.	.	(16dd\LL	pro	.	.	.	.	.
.	.	.	16ee\)	.	.	.	.	.	.	.	16ee\)	.	.	.	.	.	.
.	.	.	(16dd\	.	.	.	.	.	.	.	(16dd\	.	.	.	.	.	.
.	.	.	16ee\JJ)	.	.	.	.	.	.	.	16ee\JJ)	.	.	.	.	.	.
4AA/	3	.	2ee\	.	4e 4c#/	.	4g/	.	.	.	2ee\	no-	.	.	.	.	.
4AA/	.	.	.	.	4e 4c#/	.	4g/	.	.	.	.	.	.	.	.	.	.
=130	=130	=130	=130	=130	=130	=130	=130	=130	=130	=130	=130	=130	=130	=130	=130	=130	=130
4D\	3	.	2dd\	.	2f#/	.	2a 2d/	.	1ryy	1ryy	2dd\	-bis	1ryy	1ryy	1ryy	1ryy	1ryy
4AA/	.	.	.	.	.	.	.	.	.	.	.	.	.	.	.	.	.
4DD/	.	.	4r	.	2r	.	2r	.	.	.	2r	.	.	.	.	.	.
4r	.	.	4a\	.	.	.	.	.	.	.	.	.	.	.	.	.	.
=131	=131	=131	=131	=131	=131	=131	=131	=131	=131	=131	=131	=131	=131	=131	=131	=131	=131
!	!	!	!	!	!	!	!	!	!	!	!LO:TX:a:t=15	!	!	!	!	!	!
4AA/	.	.	(16A/LL	.	4e/	.	4cc#\	.	1ryy	1ryy	00r	.	1ryy	1ryy	1ryy	1ryy	1ryy
!	!	!	!	!LO:DY:b:t=for&colon;	!	!	!	!	!	!	!	!	!	!	!	!	!
.	.	.	16c#/	f	.	.	.	.	.	.	.	.	.	.	.	.	.
.	.	.	16e/	.	.	.	.	.	.	.	.	.	.	.	.	.	.
.	.	.	16a/JJ)	.	.	.	.	.	.	.	.	.	.	.	.	.	.
4r	.	.	(16cc#\LL	.	4r	.	4r	.	.	.	.	.	.	.	.	.	.
.	.	.	16ee\	.	.	.	.	.	.	.	.	.	.	.	.	.	.
.	.	.	16cc#\	.	.	.	.	.	.	.	.	.	.	.	.	.	.
.	.	.	16a\JJ)	.	.	.	.	.	.	.	.	.	.	.	.	.	.
4AA/	.	.	(16g#X\LL	.	4e/	.	4cc#\	.	.	.	.	.	.	.	.	.	.
.	.	.	16a\)	.	.	.	.	.	.	.	.	.	.	.	.	.	.
.	.	.	(16e\	.	.	.	.	.	.	.	.	.	.	.	.	.	.
.	.	.	16a\JJ)	.	.	.	.	.	.	.	.	.	.	.	.	.	.
4AA/	.	.	(16g#\LL	.	4e/	.	4cc#\	.	.	.	.	.	.	.	.	.	.
.	.	.	16a\)	.	.	.	.	.	.	.	.	.	.	.	.	.	.
.	.	.	(16e\	.	.	.	.	.	.	.	.	.	.	.	.	.	.
.	.	.	16gn\JJ)	.	.	.	.	.	.	.	.	.	.	.	.	.	.
!	!	!	!LO:LB:g=original	!	!	!	!	!	!	!	!	!	!	!	!	!	!
=132	=132	=132	=132	=132	=132	=132	=132	=132	=132	=132	=132	=132	=132	=132	=132	=132	=132
4D\	.	.	(16f#\LL	.	4f#/	.	4dd\	.	1ryy	1ryy	.	.	1ryy	1ryy	1ryy	1ryy	1ryy
.	.	.	16d\	.	.	.	.	.	.	.	.	.	.	.	.	.	.
.	.	.	16e\	.	.	.	.	.	.	.	.	.	.	.	.	.	.
.	.	.	16f#\JJ)	.	.	.	.	.	.	.	.	.	.	.	.	.	.
4r	.	.	(16g\LL	.	4r	.	4r	.	.	.	.	.	.	.	.	.	.
.	.	.	16a\	.	.	.	.	.	.	.	.	.	.	.	.	.	.
.	.	.	16b\	.	.	.	.	.	.	.	.	.	.	.	.	.	.
.	.	.	16cc#\JJ)	.	.	.	.	.	.	.	.	.	.	.	.	.	.
4r	.	.	(16dd\LL	.	4r	.	4r	.	.	.	.	.	.	.	.	.	.
.	.	.	16cc#\	.	.	.	.	.	.	.	.	.	.	.	.	.	.
.	.	.	16b\	.	.	.	.	.	.	.	.	.	.	.	.	.	.
.	.	.	16a\JJ)	.	.	.	.	.	.	.	.	.	.	.	.	.	.
4D\	.	.	(16g\LL	.	4f#/	.	4dd\	.	.	.	.	.	.	.	.	.	.
.	.	.	16f#\	.	.	.	.	.	.	.	.	.	.	.	.	.	.
.	.	.	16e\	.	.	.	.	.	.	.	.	.	.	.	.	.	.
.	.	.	16d\JJ)	.	.	.	.	.	.	.	.	.	.	.	.	.	.
!LO:LB:g=original	!	!	!	!	!LO:LB:g=original	!	!	!	!	!	!	!	!	!	!	!	!
=133	=133	=133	=133	=133	=133	=133	=133	=133	=133	=133	=133	=133	=133	=133	=133	=133	=133
4AA/	.	.	(16A/LL	.	4e/	.	4cc#\	.	1ryy	1ryy	.	.	1ryy	1ryy	1ryy	1ryy	1ryy
.	.	.	16c#/	.	.	.	.	.	.	.	.	.	.	.	.	.	.
.	.	.	16e/	.	.	.	.	.	.	.	.	.	.	.	.	.	.
.	.	.	16a/JJ)	.	.	.	.	.	.	.	.	.	.	.	.	.	.
4r	.	.	(16cc#\LL	.	4r	.	4r	.	.	.	.	.	.	.	.	.	.
.	.	.	16ee\	.	.	.	.	.	.	.	.	.	.	.	.	.	.
.	.	.	16cc#\	.	.	.	.	.	.	.	.	.	.	.	.	.	.
.	.	.	16a\JJ)	.	.	.	.	.	.	.	.	.	.	.	.	.	.
4AA/	.	.	(16g#X\LL	.	4e/	.	4cc#\	.	.	.	.	.	.	.	.	.	.
.	.	.	16a\)	.	.	.	.	.	.	.	.	.	.	.	.	.	.
.	.	.	(16e\	.	.	.	.	.	.	.	.	.	.	.	.	.	.
.	.	.	16a\JJ)	.	.	.	.	.	.	.	.	.	.	.	.	.	.
4AA/	.	.	(16g#\LL	.	4e/	.	4cc#\	.	.	.	.	.	.	.	.	.	.
.	.	.	16a\)	.	.	.	.	.	.	.	.	.	.	.	.	.	.
.	.	.	(16e\	.	.	.	.	.	.	.	.	.	.	.	.	.	.
.	.	.	16gn\JJ)	.	.	.	.	.	.	.	.	.	.	.	.	.	.
!	!	!	!LO:LB:g=original	!	!	!	!	!	!	!	!	!	!	!	!	!	!
=134	=134	=134	=134	=134	=134	=134	=134	=134	=134	=134	=134	=134	=134	=134	=134	=134	=134
4D\	.	.	(16f#\LL	.	4a 4d/	.	4dd 4f#/	.	1ryy	1ryy	.	.	1ryy	1ryy	1ryy	1ryy	1ryy
.	.	.	16d\	.	.	.	.	.	.	.	.	.	.	.	.	.	.
.	.	.	16e\	.	.	.	.	.	.	.	.	.	.	.	.	.	.
.	.	.	16f#\JJ)	.	.	.	.	.	.	.	.	.	.	.	.	.	.
4r	.	.	(16g\LL	.	4r	.	4r	.	.	.	.	.	.	.	.	.	.
.	.	.	16a\	.	.	.	.	.	.	.	.	.	.	.	.	.	.
.	.	.	16b\	.	.	.	.	.	.	.	.	.	.	.	.	.	.
.	.	.	16cc#\JJ)	.	.	.	.	.	.	.	.	.	.	.	.	.	.
2r	.	.	4dd\	.	2r	.	2r	.	.	.	.	.	.	.	.	.	.
.	.	.	4a\	.	.	.	.	.	.	.	.	.	.	.	.	.	.
!	!	!	!	!	!	!	!LO:LB:g=original	!	!	!	!	!	!	!	!	!	!
=135	=135	=135	=135	=135	=135	=135	=135	=135	=135	=135	=135	=135	=135	=135	=135	=135	=135
.	.	.	8qb/	.	.	.	.	.	.	.	.	.	.	.	.	.	.
4GG/	.	.	8bT\L	.	4g/	.	4b 4d/	.	1ryy	1ryy	00r	.	1ryy	1ryy	1ryy	1ryy	1ryy
.	.	.	16a\L	.	.	.	.	.	.	.	.	.	.	.	.	.	.
.	.	.	16b\JJ	.	.	.	.	.	.	.	.	.	.	.	.	.	.
!	!	!	!LO:TX:t=P:problem:mixed beam	!	!	!	!	!	!	!	!	!	!	!	!	!	!
4r	.	.	8G/L	.	4r	.	4r	.	.	.	.	.	.	.	.	.	.
.	.	.	8b\J	.	.	.	.	.	.	.	.	.	.	.	.	.	.
.	.	.	8qdd/	.	.	.	.	.	.	.	.	.	.	.	.	.	.
4AA/	.	.	8cc#t\L	.	4a/	.	4cc# 4e/	.	.	.	.	.	.	.	.	.	.
.	.	.	16b\L	.	.	.	.	.	.	.	.	.	.	.	.	.	.
.	.	.	16cc#\JJ	.	.	.	.	.	.	.	.	.	.	.	.	.	.
!	!	!	!LO:TX:t=P:problem:mixed beam	!	!	!	!	!	!	!	!	!	!	!	!	!	!
4r	.	.	8A/L	.	4r	.	4r	.	.	.	.	.	.	.	.	.	.
!	!	!	!LO:SIC:v:t=znaczek wyglądający jak custos po kresce taktowej	!	!	!	!	!	!	!	!	!	!	!	!	!	!
.	.	.	8cc#\J	.	.	.	.	.	.	.	.	.	.	.	.	.	.
*	*	*	*custos:d	*	*	*	*	*	*	*	*	*	*	*	*	*	*
!	!	!	!LO:LB:g=original	!	!	!	!	!	!	!	!	!	!	!	!	!	!
=136	=136	=136	=136	=136	=136	=136	=136	=136	=136	=136	=136	=136	=136	=136	=136	=136	=136
4BB/	.	.	8dd\L	.	4b\	.	4dd 4f#/	.	1ryy	1ryy	.	.	1ryy	1ryy	1ryy	1ryy	1ryy
.	.	.	16cc#\L	.	.	.	.	.	.	.	.	.	.	.	.	.	.
.	.	.	16dd\JJ	.	.	.	.	.	.	.	.	.	.	.	.	.	.
!	!	!	!LO:TX:t=P:problem:mixed beam	!	!	!	!	!	!	!	!	!	!	!	!	!	!
4r	.	.	8B/L	.	4r	.	4r	.	.	.	.	.	.	.	.	.	.
.	.	.	8dd\J	.	.	.	.	.	.	.	.	.	.	.	.	.	.
4C#/	.	.	16ee\LL	.	4cc#\	.	4ee 4g/	.	.	.	.	.	.	.	.	.	.
.	.	.	16dd\	.	.	.	.	.	.	.	.	.	.	.	.	.	.
.	.	.	16cc#\	.	.	.	.	.	.	.	.	.	.	.	.	.	.
.	.	.	16dd\JJ	.	.	.	.	.	.	.	.	.	.	.	.	.	.
4r	.	.	16cc#\LL	.	4r	.	4r	.	.	.	.	.	.	.	.	.	.
.	.	.	16b\	.	.	.	.	.	.	.	.	.	.	.	.	.	.
.	.	.	16a\	.	.	.	.	.	.	.	.	.	.	.	.	.	.
.	.	.	16g\JJ	.	.	.	.	.	.	.	.	.	.	.	.	.	.
=137	=137	=137	=137	=137	=137	=137	=137	=137	=137	=137	=137	=137	=137	=137	=137	=137	=137
4D\	.	.	(16f#\LL	.	4a 4d/	.	4dd 4f#/	.	1ryy	1ryy	.	.	1ryy	1ryy	1ryy	1ryy	1ryy
.	.	.	16a\	.	.	.	.	.	.	.	.	.	.	.	.	.	.
.	.	.	16dd\	.	.	.	.	.	.	.	.	.	.	.	.	.	.
.	.	.	16a\JJ)	.	.	.	.	.	.	.	.	.	.	.	.	.	.
4F#\	.	.	16g\LL	.	4r	.	4r	.	.	.	.	.	.	.	.	.	.
.	.	.	16f#\	.	.	.	.	.	.	.	.	.	.	.	.	.	.
.	.	.	16e\	.	.	.	.	.	.	.	.	.	.	.	.	.	.
.	.	.	16d\JJ	.	.	.	.	.	.	.	.	.	.	.	.	.	.
4A\	.	.	2e\	.	2r	.	2r	.	.	.	.	.	.	.	.	.	.
!	!	!	!LO:SIC:v:t=znaczek wyglądający jak custos po kresce taktowej	!	!	!	!	!	!	!	!	!	!	!	!	!	!
4AA/	.	.	.	.	.	.	.	.	.	.	.	.	.	.	.	.	.
*	*	*	*custos:d	*	*	*	*	*	*	*	*	*	*	*	*	*	*
!	!	!	!LO:LB:g=original	!	!	!	!	!	!	!	!	!	!	!	!	!	!
=138	=138	=138	=138	=138	=138	=138	=138	=138	=138	=138	=138	=138	=138	=138	=138	=138	=138
*	*	*	*clefG2	*	*	*	*	*	*	*	*	*	*	*	*	*	*
!	!	!	!LO:TX:a:t=Violin	!	!LO:TX:b:i:t=dolce	!	!LO:TX:a:t=3	!	!	!	!	!	!	!	!	!	!
4D\	.	.	4.aa\	.	4.f#/	.	0r	.	1ryy	1ryy	.	.	1ryy	1ryy	1ryy	1ryy	1ryy
4r	.	.	.	.	.	.	.	.	.	.	.	.	.	.	.	.	.
.	.	.	8gg\	.	8e/	.	.	.	.	.	.	.	.	.	.	.	.
2r	.	.	(8ff#\L	.	(8d/L	.	.	.	.	.	.	.	.	.	.	.	.
.	.	.	8ee\	.	8c#/	.	.	.	.	.	.	.	.	.	.	.	.
.	.	.	8ff#\	.	8d/	.	.	.	.	.	.	.	.	.	.	.	.
.	.	.	8gg\J)	.	8e/J)	.	.	.	.	.	.	.	.	.	.	.	.
=139	=139	=139	=139	=139	=139	=139	=139	=139	=139	=139	=139	=139	=139	=139	=139	=139	=139
!LO:TX:a:t=1	!	!	!	!	!	!	!	!	!	!	!	!	!	!	!	!	!
1r	.	.	4.aa\	.	4.f#/	.	.	.	1ryy	1ryy	00r	.	1ryy	1ryy	1ryy	1ryy	1ryy
.	.	.	8ff#\	.	8d/	.	.	.	.	.	.	.	.	.	.	.	.
.	.	.	8.aa\L	.	8.f#/L	.	.	.	.	.	.	.	.	.	.	.	.
.	.	.	16ff#\K	.	16d/K	.	.	.	.	.	.	.	.	.	.	.	.
.	.	.	8.aa\	.	8.f#/	.	.	.	.	.	.	.	.	.	.	.	.
.	.	.	16ff#\Jk	.	16d/Jk	.	.	.	.	.	.	.	.	.	.	.	.
!	!	!	!	!	!LO:LB:g=original	!	!	!	!	!	!	!	!	!	!	!	!
=140	=140	=140	=140	=140	=140	=140	=140	=140	=140	=140	=140	=140	=140	=140	=140	=140	=140
4D\	.	.	8.aa\L	.	8.f#/L	.	1r	.	1ryy	1ryy	.	.	1ryy	1ryy	1ryy	1ryy	1ryy
.	.	.	16ff#\K	.	16d/K	.	.	.	.	.	.	.	.	.	.	.	.
4G\	.	.	8.gg\	.	8.e/	.	.	.	.	.	.	.	.	.	.	.	.
.	.	.	16ee\Jk	.	16g/Jk	.	.	.	.	.	.	.	.	.	.	.	.
4A\	4	.	4dd\	.	4f#/	.	.	.	.	.	.	.	.	.	.	.	.
4AA/	3	.	4cc#\	.	4e/	.	.	.	.	.	.	.	.	.	.	.	.
!	!	!	!LO:LB:g=original	!	!	!	!	!	!	!	!	!	!	!	!	!	!
=141	=141	=141	=141	=141	=141	=141	=141	=141	=141	=141	=141	=141	=141	=141	=141	=141	=141
*	*	*	*clefC3	*	*	*	*	*	*	*	*	*	*	*	*	*	*
!	!	!	!LO:TX:a:t=Alt	!	!LO:TX:b:i:t=dolce	!	!	!	!	!	!	!	!	!	!	!	!
2D\	.	.	4.a\	.	4.ff#\	.	4.aa\	.	1ryy	1ryy	.	.	1ryy	1ryy	1ryy	1ryy	1ryy
.	.	.	8g\	.	8ee\	.	8gg\	.	.	.	.	.	.	.	.	.	.
2r	.	.	(8f#\L	.	(8dd\L	.	8ff#\L	.	.	.	.	.	.	.	.	.	.
.	.	.	8e\	.	8cc#\	.	8ee\	.	.	.	.	.	.	.	.	.	.
.	.	.	8f#\	.	8dd\	.	8ff#\	.	.	.	.	.	.	.	.	.	.
.	.	.	8g\J)	.	8ee\J)	.	8gg\J	.	.	.	.	.	.	.	.	.	.
=142	=142	=142	=142	=142	=142	=142	=142	=142	=142	=142	=142	=142	=142	=142	=142	=142	=142
!LO:TX:a:t=2	!	!	!	!	!	!	!	!	!	!	!	!	!	!	!	!	!
0r	.	.	4.a\	.	4.ff#\	.	4.aa\	.	1ryy	1ryy	.	.	1ryy	1ryy	1ryy	1ryy	1ryy
.	.	.	8f#\	.	8dd\	.	8ff#\	.	.	.	.	.	.	.	.	.	.
.	.	.	(8.a\L	.	8.ff#\L	.	8.aa\L	.	.	.	.	.	.	.	.	.	.
!	!	!	!LO:N:vis=8	!	!	!	!	!	!	!	!	!	!	!	!	!	!
.	.	.	16f#\K)	.	16dd\K	.	16ff#\K	.	.	.	.	.	.	.	.	.	.
.	.	.	(8.a\	.	8.ff#\	.	8.aa\	.	.	.	.	.	.	.	.	.	.
!	!	!	!LO:N:vis=8	!	!	!	!	!	!	!	!	!	!	!	!	!	!
.	.	.	16f#\Jk)	.	16dd\Jk	.	16ff#\Jk	.	.	.	.	.	.	.	.	.	.
=143	=143	=143	=143	=143	=143	=143	=143	=143	=143	=143	=143	=143	=143	=143	=143	=143	=143
.	.	.	(8a\L	.	8ff#\L	.	(8aa\L	.	1ryy	1ryy	0r	.	1ryy	1ryy	1ryy	1ryy	1ryy
.	.	.	8b\	.	(8gg\	.	8bb\	.	.	.	.	.	.	.	.	.	.
.	.	.	8cc#\	.	8aa\	.	8ccc#\	.	.	.	.	.	.	.	.	.	.
.	.	.	8dd\J)	.	8bb\J)	.	8ddd\J)	.	.	.	.	.	.	.	.	.	.
.	.	.	(8dd\L	.	8bb\L	.	(8ddd\L	.	.	.	.	.	.	.	.	.	.
.	.	.	8cc#\	.	(8aa\	.	8ccc#\	.	.	.	.	.	.	.	.	.	.
.	.	.	8b\	.	8gg\)	.	8bb\	.	.	.	.	.	.	.	.	.	.
.	.	.	8a\J)	.	8ff#\J	.	8aa\J)	.	.	.	.	.	.	.	.	.	.
!LO:LB:g=original	!	!	!LO:LB:g=original	!	!	!	!LO:LB:g=original	!	!	!	!	!	!	!	!	!	!
=144	=144	=144	=144	=144	=144	=144	=144	=144	=144	=144	=144	=144	=144	=144	=144	=144	=144
4F#\	.	.	(8a\L	.	8.ff#\L	.	8.aa\L	.	1ryy	1ryy	.	.	1ryy	1ryy	1ryy	1ryy	1ryy
.	.	.	8f#\)	.	.	.	.	.	.	.	.	.	.	.	.	.	.
.	.	.	.	.	16dd\K	.	16ff#\K	.	.	.	.	.	.	.	.	.	.
4G\	.	.	(8g\	.	8.b\	.	8.gg\	.	.	.	.	.	.	.	.	.	.
.	.	.	8e\J)	.	.	.	.	.	.	.	.	.	.	.	.	.	.
.	.	.	.	.	16g\Jk	.	16ee\Jk	.	.	.	.	.	.	.	.	.	.
4A\	.	.	4d\	.	4f#/	.	4dd\	.	.	.	.	.	.	.	.	.	.
4AA/	.	.	4e\	.	4e/	.	4cc#\	.	.	.	.	.	.	.	.	.	.
=145	=145	=145	=145	=145	=145	=145	=145	=145	=145	=145	=145	=145	=145	=145	=145	=145	=145
!	!	!	!	!	!LO:TX:a:t=f	!	!	!	!	!	!	!	!	!	!	!	!
4D/	.	.	4d\	.	4f#/	.	4dd\	.	1ryy	1ryy	1r	.	1ryy	1ryy	1ryy	1ryy	1ryy
!	!	!	!	!	!LO:TUP:b:problem:klamra łukowa	!	!LO:TUP:a:problem:klamra łukowa	!	!	!	!	!	!	!	!	!	!
4AA/	.	.	4dd\	.	12a/L	.	12ff#\L	.	.	.	.	.	.	.	.	.	.
.	.	.	.	.	12b/	.	12gg\	.	.	.	.	.	.	.	.	.	.
.	.	.	.	.	12a/J	.	12ff#\J	.	.	.	.	.	.	.	.	.	.
4DD/	.	.	4d\	.	4f#/	.	4dd\	.	.	.	.	.	.	.	.	.	.
4r	.	.	4r	.	4r	.	4r	.	.	.	.	.	.	.	.	.	.
==	==	==	==	==	==	==	==	==	==	==	==	==	==	==	==	==	==
*-	*-	*-	*-	*-	*-	*-	*-	*-	*-	*-	*-	*-	*-	*-	*-	*-	*-
!!!system-decoration: [(g1)][(g2)][(g3)][(g4)]s12
!!!RDF**kern: | = vertical stroke
!!!ENC: Andrzej Gręziak
!!!END: 2020-10-20
!!!AIN: 1 alto 1 bass 2 cor 2 flt 1 organ 1 soprn 1 tenor 1 viola 2 violn
!!!ENC: Marta Lawrence
!!!END: 2022-04-06
